; generated by PrusaSlicer 2.4.1+arm64 on 2023-04-03 at 15:36:17 UTC


;
;
; 

; external perimeters extrusion width = 0.45mm
; perimeters extrusion width = 0.45mm
; infill extrusion width = 0.45mm
; solid infill extrusion width = 0.45mm
; top infill extrusion width = 0.40mm
; support material extrusion width = 0.35mm
; first layer extrusion width = 0.42mm

M73 P0 R57
M73 Q0 S57
M201 X1000 Y1000 Z200 E5000 ; sets maximum accelerations, mm/sec^2
M203 X200 Y200 Z12 E120 ; sets maximum feedrates, mm / sec
M204 P1250 R1250 T1250 ; sets acceleration (P, T) and retract acceleration (R), mm/sec^2
M205 X8.00 Y8.00 Z0.40 E4.50 ; sets the jerk limits, mm/sec
M205 S0 T0 ; sets the minimum extruding and travel feed rate, mm/sec
M107
;TYPE:Custom
M862.3 P "MK3S" ; printer model check
M862.1 P0.4 ; nozzle diameter check
M115 U3.11.0 ; tell printer latest fw version
G90 ; use absolute coordinates
M83 ; extruder relative mode
M104 S215 ; set extruder temp
M140 S60 ; set bed temp
M190 S60 ; wait for bed temp
M109 S215 ; wait for extruder temp
G28 W ; home all without mesh bed level
G80 ; mesh bed leveling

G1 Z0.2 F720
G1 Y-3 F1000 ; go outside print area
G92 E0
G1 X60 E9 F1000 ; intro line
G1 X100 E12.5 F1000 ; intro line

G92 E0
M221 S95

; Don't change E values below. Excessive value can damage the printer.

G21 ; set units to millimeters
G90 ; use absolute coordinates
M83 ; use relative distances for extrusion
M900 K0.05 ; Filament gcode LA 1.5
M900 K30 ; Filament gcode LA 1.0
M107
;LAYER_CHANGE
;Z:0.35
;HEIGHT:0.35
;BEFORE_LAYER_CHANGE
G92 E0.0
;0.35


G1 E-.8 F2100
G1 Z.4 F1200
;AFTER_LAYER_CHANGE
;0.35
G1 X97.703 Y85.551 F9000
G1 Z.35 F1200
G1 E.8 F2100
;TYPE:Skirt/Brim
;WIDTH:0.42
G1 F1800
G1 X98.766 Y84.56 E.07293
G1 X100 Y84.26 E.06374
G1 X150 Y84.26 E2.5093
G1 X151.399 Y84.653 E.07293
M73 P0 R56
G1 X152.39 Y85.716 E.07293
G1 X152.69 Y86.95 E.06374
G1 X152.69 Y123.05 E1.81171
G1 X152.297 Y124.449 E.07293
G1 X151.234 Y125.44 E.07293
G1 X150 Y125.74 E.06374
G1 X100 Y125.74 E2.5093
G1 X98.601 Y125.347 E.07293
G1 X97.61 Y124.284 E.07293
G1 X97.31 Y123.05 E.06374
G1 X97.31 Y86.95 E1.81171
G1 X97.687 Y85.609 E.06992
G1 X98.029 Y85.712 F9000
G1 F1800
G1 X98.047 Y85.653 E.00309
G1 X99.09 Y84.789 E.068
G1 X100 Y84.605 E.04658
G1 X150 Y84.605 E2.5093
G1 X151.297 Y84.997 E.068
G1 X152.161 Y86.04 E.068
G1 X152.345 Y86.95 E.04658
G1 X152.345 Y123.05 E1.81171
G1 X151.953 Y124.347 E.068
G1 X150.91 Y125.211 E.068
G1 X150 Y125.395 E.04658
G1 X100 Y125.395 E2.5093
G1 X98.703 Y125.003 E.068
G1 X97.839 Y123.96 E.068
G1 X97.655 Y123.05 E.04658
G1 X97.655 Y86.95 E1.81171
G1 X98.011 Y85.769 E.06189
;WIPE_START
G1 F7200
G1 X98.047 Y85.653 E-.03371
G1 X99.09 Y84.789 E-.37544
G1 X100 Y84.605 E-.25715
G1 X100.338 Y84.605 E-.0937
;WIPE_END
G1 E-.04 F2100
G1 Z.75 F1200
G1 X117.111 Y97.955 F9000
M73 Q0 S56
G1 Z.35 F1200
G1 E.8 F2100
;TYPE:Perimeter
G1 F1800
G1 X117.326 Y97.631 E.01953
G1 X117.566 Y97.347 E.01867
G1 X117.831 Y97.096 E.01829
G1 X118.119 Y96.876 E.01821
G1 X118.43 Y96.689 E.01821
G1 X118.76 Y96.537 E.01821
G1 X119.103 Y96.421 E.01821
G1 X119.458 Y96.343 E.01821
G1 X119.819 Y96.304 E.01821
G1 X120.181 Y96.304 E.01821
G1 X120.542 Y96.343 E.01821
G1 X120.897 Y96.421 E.01821
G1 X121.24 Y96.537 E.01821
G1 X121.57 Y96.689 E.01821
G1 X121.881 Y96.876 E.01821
G1 X122.169 Y97.096 E.01821
G1 X122.433 Y97.345 E.01821
G1 X122.668 Y97.622 E.01821
G1 X122.871 Y97.922 E.01821
G1 X123.041 Y98.243 E.01821
G1 X123.176 Y98.58 E.01821
G1 X123.273 Y98.93 E.01821
G1 X123.331 Y99.288 E.01821
G1 X123.351 Y99.65 E.01821
G1 X123.331 Y100.012 E.01821
G1 X123.273 Y100.37 E.01821
G1 X123.176 Y100.72 E.01821
G1 X123.041 Y101.057 E.01821
G1 X122.871 Y101.378 E.01821
G1 X122.674 Y101.669 E.01766
G1 X122.434 Y101.953 E.01867
G1 X122.169 Y102.204 E.01829
G1 X121.881 Y102.424 E.01821
G1 X121.57 Y102.611 E.01821
G1 X121.24 Y102.763 E.01821
G1 X120.897 Y102.879 E.01821
G1 X120.542 Y102.957 E.01821
G1 X120.181 Y102.996 E.01821
G1 X119.819 Y102.996 E.01821
G1 X119.458 Y102.957 E.01821
G1 X119.103 Y102.879 E.01821
G1 X118.76 Y102.763 E.01821
G1 X118.43 Y102.611 E.01821
G1 X118.119 Y102.424 E.01821
G1 X117.831 Y102.204 E.01821
G1 X117.575 Y101.962 E.01766
G1 X117.333 Y101.679 E.01867
G1 X117.129 Y101.378 E.01829
G1 X116.959 Y101.057 E.01821
G1 X116.824 Y100.72 E.01821
G1 X116.727 Y100.37 E.01821
G1 X116.669 Y100.012 E.01821
G1 X116.649 Y99.65 E.01821
G1 X116.669 Y99.288 E.01821
G1 X116.727 Y98.93 E.01821
G1 X116.824 Y98.58 E.01821
G1 X116.959 Y98.243 E.01821
G1 X117.083 Y98.008 E.01332
G1 X117.416 Y98.117 F9000
G1 F1800
G1 X117.601 Y97.84 E.01675
G1 X117.817 Y97.584 E.0168
G1 X118.054 Y97.359 E.01638
G1 X118.313 Y97.162 E.01633
G1 X118.592 Y96.994 E.01633
G1 X118.887 Y96.858 E.01633
G1 X119.196 Y96.754 E.01633
G1 X119.514 Y96.684 E.01633
G1 X119.837 Y96.649 E.01633
G1 X120.163 Y96.649 E.01633
G1 X120.486 Y96.684 E.01633
G1 X120.804 Y96.754 E.01633
G1 X121.113 Y96.858 E.01633
G1 X121.408 Y96.994 E.01633
G1 X121.687 Y97.162 E.01633
G1 X121.946 Y97.359 E.01633
G1 X122.182 Y97.583 E.01633
G1 X122.393 Y97.831 E.01633
G1 X122.575 Y98.1 E.01633
G1 X122.728 Y98.388 E.01633
G1 X122.848 Y98.69 E.01633
G1 X122.935 Y99.004 E.01633
G1 X122.988 Y99.325 E.01633
G1 X123.006 Y99.65 E.01633
G1 X122.988 Y99.975 E.01633
G1 X122.935 Y100.296 E.01633
G1 X122.848 Y100.61 E.01633
G1 X122.728 Y100.912 E.01633
G1 X122.575 Y101.2 E.01633
G1 X122.399 Y101.46 E.01582
G1 X122.183 Y101.716 E.0168
G1 X121.946 Y101.941 E.01638
G1 X121.687 Y102.138 E.01633
G1 X121.408 Y102.306 E.01633
G1 X121.113 Y102.442 E.01633
G1 X120.804 Y102.546 E.01633
G1 X120.486 Y102.616 E.01633
G1 X120.163 Y102.651 E.01633
G1 X119.837 Y102.651 E.01633
G1 X119.514 Y102.616 E.01633
G1 X119.196 Y102.546 E.01633
G1 X118.887 Y102.442 E.01633
G1 X118.592 Y102.306 E.01633
G1 X118.313 Y102.138 E.01633
G1 X118.054 Y101.941 E.01633
G1 X117.825 Y101.724 E.01582
G1 X117.608 Y101.47 E.0168
G1 X117.425 Y101.2 E.01638
G1 X117.272 Y100.912 E.01633
G1 X117.152 Y100.61 E.01633
G1 X117.065 Y100.296 E.01633
G1 X117.012 Y99.975 E.01633
G1 X116.994 Y99.65 E.01633
G1 X117.012 Y99.325 E.01633
G1 X117.065 Y99.004 E.01633
G1 X117.152 Y98.69 E.01633
G1 X117.272 Y98.388 E.01633
G1 X117.388 Y98.17 E.01238
G1 X117.72 Y98.278 F9000
;TYPE:External perimeter
G1 F1800
G1 X117.877 Y98.048 E.01397
G1 X118.068 Y97.821 E.01492
G1 X118.278 Y97.622 E.01447
G1 X118.507 Y97.448 E.01446
G1 X118.754 Y97.3 E.01446
G1 X119.015 Y97.179 E.01446
G1 X119.288 Y97.087 E.01446
G1 X119.57 Y97.025 E.01446
G1 X119.856 Y96.994 E.01446
G1 X120.144 Y96.994 E.01446
G1 X120.43 Y97.025 E.01446
G1 X120.712 Y97.087 E.01446
G1 X120.985 Y97.179 E.01446
G1 X121.246 Y97.3 E.01446
G1 X121.493 Y97.448 E.01446
G1 X121.722 Y97.622 E.01446
G1 X121.931 Y97.821 E.01446
G1 X122.118 Y98.04 E.01446
G1 X122.28 Y98.278 E.01446
G1 X122.414 Y98.533 E.01446
G1 X122.521 Y98.801 E.01446
G1 X122.598 Y99.078 E.01446
G1 X122.645 Y99.362 E.01446
G1 X122.66 Y99.65 E.01446
G1 X122.645 Y99.938 E.01446
G1 X122.598 Y100.222 E.01446
G1 X122.521 Y100.499 E.01446
G1 X122.414 Y100.767 E.01446
G1 X122.28 Y101.022 E.01446
G1 X122.123 Y101.252 E.01397
G1 X121.932 Y101.479 E.01492
G1 X121.722 Y101.678 E.01447
G1 X121.493 Y101.852 E.01446
G1 X121.246 Y102 E.01446
G1 X120.985 Y102.121 E.01446
G1 X120.712 Y102.213 E.01446
G1 X120.43 Y102.275 E.01446
G1 X120.144 Y102.306 E.01446
G1 X119.856 Y102.306 E.01446
G1 X119.57 Y102.275 E.01446
G1 X119.288 Y102.213 E.01446
G1 X119.015 Y102.121 E.01446
G1 X118.754 Y102 E.01446
G1 X118.507 Y101.852 E.01446
G1 X118.278 Y101.678 E.01446
G1 X118.076 Y101.486 E.01397
G1 X117.882 Y101.26 E.01492
G1 X117.72 Y101.022 E.01448
G1 X117.586 Y100.767 E.01446
G1 X117.479 Y100.499 E.01446
G1 X117.402 Y100.222 E.01446
G1 X117.355 Y99.938 E.01446
G1 X117.34 Y99.65 E.01446
G1 X117.355 Y99.362 E.01446
G1 X117.402 Y99.078 E.01446
G1 X117.479 Y98.801 E.01446
G1 X117.586 Y98.533 E.01446
G1 X117.692 Y98.331 E.01145
G1 X117.586 Y98.035 F9000
;WIPE_START
G1 F7200
G1 X117.877 Y98.048 E-.09368
G1 X118.068 Y97.821 E-.08238
G1 X118.278 Y97.622 E-.07992
G1 X118.507 Y97.448 E-.07982
G1 X118.754 Y97.3 E-.07981
G1 X119.015 Y97.179 E-.07982
G1 X119.288 Y97.087 E-.07982
G1 X119.57 Y97.025 E-.07981
G1 X119.856 Y96.994 E-.07982
G1 X119.947 Y96.994 E-.02514
;WIPE_END
G1 E-.04 F2100
G1 Z.75 F1200
G1 X112.311 Y99.165 F9000
G1 Z.35 F1200
G1 E.8 F2100
;TYPE:Perimeter
G1 F1800
G1 X112.351 Y99.65 E.02441
G1 X112.331 Y100.012 E.01821
G1 X112.273 Y100.37 E.01821
G1 X112.176 Y100.72 E.01821
G1 X112.041 Y101.057 E.01821
G1 X111.871 Y101.378 E.01821
G1 X111.668 Y101.678 E.01821
G1 X111.433 Y101.955 E.01821
G1 X111.169 Y102.204 E.01821
G1 X110.881 Y102.424 E.01821
G1 X110.57 Y102.611 E.01821
G1 X110.24 Y102.763 E.01821
G1 X109.897 Y102.879 E.01821
G1 X109.542 Y102.957 E.01821
G1 X109.181 Y102.996 E.01821
G1 X108.819 Y102.996 E.01821
G1 X108.458 Y102.957 E.01821
G1 X108.103 Y102.879 E.01821
G1 X107.76 Y102.763 E.01821
G1 X107.43 Y102.611 E.01821
G1 X107.119 Y102.424 E.01821
G1 X106.831 Y102.204 E.01821
G1 X106.567 Y101.955 E.01821
G1 X106.339 Y101.686 E.01766
G1 X106.129 Y101.379 E.01867
G1 X105.959 Y101.057 E.01829
G1 X105.824 Y100.72 E.01821
G1 X105.727 Y100.37 E.01821
G1 X105.669 Y100.012 E.01821
G1 X105.649 Y99.65 E.01821
G1 X105.669 Y99.288 E.01821
G1 X105.727 Y98.93 E.01821
G1 X105.821 Y98.591 E.01766
G1 X105.958 Y98.244 E.01867
G1 X106.129 Y97.922 E.01829
G1 X106.332 Y97.622 E.01821
G1 X106.567 Y97.345 E.01821
G1 X106.831 Y97.096 E.01821
G1 X107.119 Y96.876 E.01821
G1 X107.43 Y96.689 E.01821
G1 X107.76 Y96.537 E.01821
G1 X108.103 Y96.421 E.01821
G1 X108.458 Y96.343 E.01821
G1 X108.819 Y96.304 E.01821
G1 X109.181 Y96.304 E.01821
G1 X109.542 Y96.343 E.01821
G1 X109.897 Y96.421 E.01821
G1 X110.24 Y96.537 E.01821
G1 X110.57 Y96.689 E.01821
G1 X110.881 Y96.876 E.01821
G1 X111.169 Y97.096 E.01821
G1 X111.433 Y97.345 E.01821
G1 X111.668 Y97.622 E.01821
G1 X111.871 Y97.922 E.01821
G1 X112.041 Y98.243 E.01821
G1 X112.176 Y98.58 E.01821
G1 X112.273 Y98.93 E.01821
G1 X112.302 Y99.106 E.00897
G1 X111.971 Y99.221 F9000
G1 F1800
G1 X112.006 Y99.65 E.0216
G1 X111.988 Y99.975 E.01633
G1 X111.935 Y100.296 E.01633
G1 X111.848 Y100.61 E.01633
G1 X111.728 Y100.912 E.01633
G1 X111.575 Y101.2 E.01633
G1 X111.393 Y101.469 E.01633
G1 X111.182 Y101.717 E.01633
G1 X110.946 Y101.941 E.01633
G1 X110.687 Y102.138 E.01633
G1 X110.408 Y102.306 E.01633
G1 X110.113 Y102.442 E.01633
G1 X109.804 Y102.546 E.01633
G1 X109.486 Y102.616 E.01633
G1 X109.163 Y102.651 E.01633
G1 X108.837 Y102.651 E.01633
G1 X108.514 Y102.616 E.01633
G1 X108.196 Y102.546 E.01633
G1 X107.887 Y102.442 E.01633
G1 X107.592 Y102.306 E.01633
G1 X107.313 Y102.138 E.01633
G1 X107.054 Y101.941 E.01633
G1 X106.818 Y101.717 E.01633
G1 X106.614 Y101.477 E.01582
G1 X106.425 Y101.2 E.0168
G1 X106.272 Y100.912 E.01638
G1 X106.152 Y100.61 E.01633
G1 X106.065 Y100.296 E.01633
G1 X106.012 Y99.975 E.01633
G1 X105.994 Y99.65 E.01633
G1 X106.012 Y99.325 E.01633
G1 X106.065 Y99.004 E.01633
G1 X106.149 Y98.7 E.01582
G1 X106.272 Y98.389 E.0168
G1 X106.425 Y98.1 E.01639
G1 X106.607 Y97.831 E.01633
G1 X106.818 Y97.583 E.01633
G1 X107.054 Y97.359 E.01633
G1 X107.313 Y97.162 E.01633
G1 X107.592 Y96.994 E.01633
G1 X107.887 Y96.858 E.01633
G1 X108.196 Y96.754 E.01633
G1 X108.514 Y96.684 E.01633
G1 X108.837 Y96.649 E.01633
G1 X109.163 Y96.649 E.01633
G1 X109.486 Y96.684 E.01633
G1 X109.804 Y96.754 E.01633
G1 X110.113 Y96.858 E.01633
G1 X110.408 Y96.994 E.01633
G1 X110.687 Y97.162 E.01633
G1 X110.946 Y97.359 E.01633
G1 X111.182 Y97.583 E.01633
G1 X111.393 Y97.831 E.01633
G1 X111.575 Y98.1 E.01633
G1 X111.728 Y98.388 E.01633
G1 X111.848 Y98.69 E.01633
G1 X111.961 Y99.162 E.02433
G1 X111.631 Y99.277 F9000
;TYPE:External perimeter
G1 F1800
G1 X111.66 Y99.65 E.01879
G1 X111.645 Y99.938 E.01446
G1 X111.598 Y100.222 E.01446
G1 X111.521 Y100.499 E.01446
G1 X111.414 Y100.767 E.01446
G1 X111.28 Y101.022 E.01446
G1 X111.118 Y101.26 E.01446
G1 X110.931 Y101.48 E.01446
G1 X110.722 Y101.678 E.01446
G1 X110.493 Y101.852 E.01446
G1 X110.246 Y102 E.01446
G1 X109.985 Y102.121 E.01446
G1 X109.712 Y102.213 E.01446
G1 X109.43 Y102.275 E.01446
G1 X109.144 Y102.306 E.01446
G1 X108.856 Y102.306 E.01446
G1 X108.57 Y102.275 E.01446
G1 X108.288 Y102.213 E.01446
G1 X108.015 Y102.121 E.01446
G1 X107.754 Y102 E.01446
G1 X107.507 Y101.852 E.01446
G1 X107.278 Y101.678 E.01446
G1 X107.069 Y101.479 E.01446
G1 X106.888 Y101.267 E.01397
G1 X106.721 Y101.022 E.01492
G1 X106.586 Y100.767 E.01447
G1 X106.479 Y100.499 E.01446
G1 X106.402 Y100.222 E.01446
G1 X106.355 Y99.938 E.01446
G1 X106.34 Y99.65 E.01446
G1 X106.355 Y99.362 E.01446
G1 X106.402 Y99.078 E.01446
G1 X106.476 Y98.81 E.01397
G1 X106.585 Y98.533 E.01492
G1 X106.721 Y98.278 E.01448
G1 X106.882 Y98.04 E.01446
G1 X107.069 Y97.821 E.01446
G1 X107.278 Y97.622 E.01446
G1 X107.507 Y97.448 E.01446
G1 X107.754 Y97.3 E.01446
G1 X108.015 Y97.179 E.01446
G1 X108.288 Y97.087 E.01446
G1 X108.57 Y97.025 E.01446
G1 X108.856 Y96.994 E.01446
G1 X109.144 Y96.994 E.01446
G1 X109.43 Y97.025 E.01446
G1 X109.712 Y97.087 E.01446
G1 X109.985 Y97.179 E.01446
G1 X110.246 Y97.3 E.01446
G1 X110.493 Y97.448 E.01446
G1 X110.722 Y97.622 E.01446
G1 X110.931 Y97.821 E.01446
G1 X111.118 Y98.04 E.01446
G1 X111.28 Y98.278 E.01446
G1 X111.414 Y98.533 E.01446
G1 X111.521 Y98.801 E.01446
G1 X111.621 Y99.218 E.02152
G1 X111.979 Y99.414 F9000
;WIPE_START
G1 F7200
G1 X111.66 Y99.65 E-.1203
G1 X111.645 Y99.938 E-.07982
G1 X111.598 Y100.222 E-.07981
G1 X111.521 Y100.499 E-.07981
G1 X111.414 Y100.767 E-.07982
G1 X111.28 Y101.022 E-.07981
G1 X111.118 Y101.26 E-.07981
G1 X110.931 Y101.48 E-.07982
G1 X110.722 Y101.678 E-.07981
G1 X110.719 Y101.68 E-.00118
;WIPE_END
G1 E-.04 F2100
G1 Z.75 F1200
G1 X100.9 Y87.85 F9000
G1 Z.35 F1200
G1 E.8 F2100
;TYPE:Perimeter
G1 F1800
G1 X149.1 Y87.85 E2.41898
G1 X149.1 Y122.15 E1.7214
G1 X100.9 Y122.15 E2.41898
G1 X100.9 Y87.91 E1.71839
G1 X100.555 Y87.505 F9000
G1 F1800
G1 X149.445 Y87.505 E2.4536
G1 X149.445 Y122.495 E1.75602
G1 X100.555 Y122.495 E2.4536
G1 X100.555 Y87.565 E1.75301
M73 P1 R56
M73 Q1 S56
G1 X100.21 Y87.16 F9000
;TYPE:External perimeter
G1 F1800
G1 X149.79 Y87.16 E2.48822
G1 X149.79 Y122.84 E1.79063
G1 X100.21 Y122.84 E2.48822
G1 X100.21 Y87.22 E1.78762
G1 X100.601 Y87.243 F9000
;WIPE_START
G1 F7200
G1 X102.953 Y87.217 E-.76
;WIPE_END
G1 E-.04 F2100
G1 Z.75 F1200
G1 X148.298 Y87.953 F9000
G1 Z.35 F1200
G1 E.8 F2100
;TYPE:Solid infill
;WIDTH:0.420903
G1 F1800
G1 X148.842 Y88.497 E.0387
G1 X148.842 Y88.986 E.02461
G1 X147.964 Y88.108 E.06246
G1 X147.475 Y88.108 E.02461
G1 X148.842 Y89.475 E.09726
G1 X148.842 Y89.964 E.02461
G1 X146.986 Y88.108 E.13206
G1 X146.497 Y88.108 E.02461
G1 X148.842 Y90.453 E.16686
G1 X148.842 Y90.942 E.02461
G1 X146.008 Y88.108 E.20165
G1 X145.519 Y88.108 E.02461
G1 X148.842 Y91.431 E.23645
G1 X148.842 Y91.92 E.02461
G1 X145.03 Y88.108 E.27125
G1 X144.541 Y88.108 E.02461
G1 X148.842 Y92.409 E.30605
G1 X148.842 Y92.898 E.02461
G1 X144.052 Y88.108 E.34085
G1 X143.563 Y88.108 E.02461
G1 X148.842 Y93.387 E.37565
G1 X148.842 Y93.876 E.02461
G1 X143.074 Y88.108 E.41045
G1 X142.585 Y88.108 E.02461
G1 X148.842 Y94.365 E.44524
G1 X148.842 Y94.854 E.02461
G1 X142.096 Y88.108 E.48004
G1 X141.607 Y88.108 E.02461
G1 X148.842 Y95.343 E.51484
G1 X148.842 Y95.833 E.02461
G1 X141.117 Y88.108 E.54964
G1 X140.628 Y88.108 E.02461
G1 X148.842 Y96.322 E.58444
G1 X148.842 Y96.811 E.02461
G1 X140.139 Y88.108 E.61924
G1 X139.65 Y88.108 E.02461
G1 X148.842 Y97.3 E.65404
G1 X148.842 Y97.789 E.02461
G1 X139.161 Y88.108 E.68883
G1 X138.672 Y88.108 E.02461
G1 X148.842 Y98.278 E.72363
G1 X148.842 Y98.767 E.02461
G1 X138.183 Y88.108 E.75843
G1 X137.694 Y88.108 E.02461
G1 X148.842 Y99.256 E.79323
G1 X148.842 Y99.745 E.02461
G1 X137.205 Y88.108 E.82803
G1 X136.716 Y88.108 E.02461
G1 X148.842 Y100.234 E.86283
G1 X148.842 Y100.723 E.02461
G1 X136.227 Y88.108 E.89763
G1 X135.738 Y88.108 E.02461
G1 X148.842 Y101.212 E.93242
G1 X148.842 Y101.701 E.02461
G1 X135.249 Y88.108 E.96722
G1 X134.76 Y88.108 E.02461
G1 X148.842 Y102.19 E1.00202
G1 X148.842 Y102.679 E.02461
G1 X134.271 Y88.108 E1.03682
