; generated by PrusaSlicer 2.4.1+arm64 on 2023-03-06 at 22:03:50 UTC


;
;
; 

; external perimeters extrusion width = 0.45mm
; perimeters extrusion width = 0.45mm
; infill extrusion width = 0.45mm
; solid infill extrusion width = 0.45mm
; top infill extrusion width = 0.40mm
; first layer extrusion width = 0.42mm

; external perimeters extrusion width = 0.45mm
; perimeters extrusion width = 0.45mm
; infill extrusion width = 0.45mm
; solid infill extrusion width = 0.45mm
; top infill extrusion width = 0.40mm
; first layer extrusion width = 0.42mm

; external perimeters extrusion width = 0.45mm
; perimeters extrusion width = 0.45mm
; infill extrusion width = 0.45mm
; solid infill extrusion width = 0.45mm
; top infill extrusion width = 0.40mm
; first layer extrusion width = 0.42mm

M73 P0 R116
M73 Q0 S117
M201 X1000 Y1000 Z200 E5000 ; sets maximum accelerations, mm/sec^2
M203 X200 Y200 Z12 E120 ; sets maximum feedrates, mm / sec
M204 P1250 R1250 T1250 ; sets acceleration (P, T) and retract acceleration (R), mm/sec^2
M205 X8.00 Y8.00 Z0.40 E4.50 ; sets the jerk limits, mm/sec
M205 S0 T0 ; sets the minimum extruding and travel feed rate, mm/sec
M107
;TYPE:Custom
M862.3 P "MK3S" ; printer model check
M862.1 P0.4 ; nozzle diameter check
M115 U3.11.0 ; tell printer latest fw version
G90 ; use absolute coordinates
M83 ; extruder relative mode
M104 S210 ; set extruder temp
M140 S60 ; set bed temp
M190 S60 ; wait for bed temp
M109 S210 ; wait for extruder temp
G28 W ; home all without mesh bed level
G80 ; mesh bed leveling

G1 Z0.2 F720
G1 Y-3 F1000 ; go outside print area
G92 E0
G1 X60 E9 F1000 ; intro line
G1 X100 E12.5 F1000 ; intro line

G92 E0
M221 S95

; Don't change E values below. Excessive value can damage the printer.

G21 ; set units to millimeters
G90 ; use absolute coordinates
M83 ; use relative distances for extrusion
; Filament gcode
M107
;LAYER_CHANGE
;Z:0.35
;HEIGHT:0.35
;BEFORE_LAYER_CHANGE
G92 E0.0
;0.35


G1 Z.35 F1200
;AFTER_LAYER_CHANGE
;0.35
G1 E-5 F2700
G1 Z.55 F1200
G1 X57.428 Y65.083 F9000
G1 Z.35 F1200
G1 E5 F2700
;TYPE:Skirt/Brim
;WIDTH:0.42
G1 F1800
G1 X58.183 Y64.585 E.04539
G1 X59.471 Y64.093 E.06918
G1 X60.578 Y63.956 E.05598
G1 X117.978 Y62.843 E2.88121
G1 X122.43 Y62.842 E.22344
G1 X123.804 Y63.22 E.07152
G1 X161.738 Y85.803 E2.21558
G1 X193.609 Y114.636 E2.15689
G1 X194.436 Y116.576 E.10583
G1 X194.428 Y138.017 E1.07601
G1 X193.641 Y139.913 E.10306
G1 X193.511 Y140.043 E.0092
G1 X192.794 Y140.607 E.04577
G1 X192.12 Y140.993 E.03898
G1 X191.062 Y141.314 E.05548
G1 X132.675 Y147.145 E2.94481
G1 X128.007 Y147.158 E.23423
G1 X126.509 Y146.702 E.07863
G1 X57.644 Y100.491 E4.16202
G1 X56.654 Y99.592 E.06713
G1 X55.965 Y97.794 E.09662
G1 X55.965 Y67.619 E1.51437
G1 X56.654 Y65.822 E.09662
G1 X57.385 Y65.124 E.05069
G1 X57.622 Y65.373 F9000
G1 F1800
G1 X58.354 Y64.884 E.04418
G1 X59.56 Y64.426 E.06473
G1 X60.584 Y64.301 E.05179
G1 X117.984 Y63.187 E2.88121
G1 X122.43 Y63.187 E.2231
G1 X123.628 Y63.516 E.06235
G1 X161.529 Y86.078 E2.21359
G1 X193.37 Y114.885 E2.15492
G1 X194.091 Y116.576 E.09226
G1 X194.083 Y138.016 E1.07598
G1 X193.397 Y139.67 E.08984
G1 X193.267 Y139.799 E.0092
G1 X192.292 Y140.514 E.06067
G1 X191.592 Y140.843 E.03881
G1 X191.028 Y140.971 E.02902
G1 X132.64 Y146.802 E2.94481
G1 X128.007 Y146.813 E.23251
G1 X126.701 Y146.415 E.06854
G1 X57.836 Y100.205 E4.16202
G1 X56.911 Y99.362 E.06285
G1 X56.31 Y97.794 E.08423
G1 X56.31 Y67.619 E1.51437
G1 X56.911 Y66.052 E.08423
G1 X57.579 Y65.414 E.04635
;WIPE_START
G1 F7200
G1 X58.354 Y64.884 E-.3347
G1 X59.56 Y64.426 E-.45949
G1 X60.584 Y64.301 E-.36764
G1 X70.654 Y64.105 E-3.58818
;WIPE_END
G1 E-.25 F2700
G1 Z.55 F1200
G1 X61.305 Y76.863 F9000
G1 Z.35 F1200
G1 E5 F2700
;TYPE:Perimeter
G1 F1800
G1 X67.096 Y76.863 E.29061
G1 X68.738 Y78.506 E.11658
G1 X114.755 Y78.506 E2.30937
G1 X114.755 Y86.908 E.42166
G1 X68.738 Y86.908 E2.30937
G1 X67.096 Y88.55 E.11658
M73 P0 R115
G1 X61.305 Y88.55 E.29061
G1 X61.305 Y76.923 E.58352
G1 X61.65 Y77.208 F9000
G1 F1800
G1 X66.953 Y77.208 E.26613
G1 X68.595 Y78.851 E.11658
G1 X114.41 Y78.851 E2.29923
G1 X114.41 Y86.563 E.38704
G1 X68.595 Y86.563 E2.29923
G1 X66.953 Y88.206 E.11658
G1 X61.65 Y88.206 E.26613
G1 X61.65 Y77.268 E.5489
G1 X61.995 Y77.553 F9000
;TYPE:External perimeter
G1 F1800
G1 X66.81 Y77.553 E.24165
G1 X68.453 Y79.196 E.11658
G1 X114.065 Y79.196 E2.28909
G1 X114.065 Y86.218 E.35242
M73 Q0 S116
G1 X68.453 Y86.218 E2.28909
G1 X66.81 Y87.861 E.11658
G1 X61.995 Y87.861 E.24165
G1 X61.995 Y77.613 E.51429
G1 X61.937 Y77.157 F9000
;WIPE_START
G1 F7200
G1 X66.81 Y77.553 E-1.71554
G1 X68.453 Y79.196 E-.82757
G1 X74.647 Y79.196 E-2.20689
;WIPE_END
G1 E-.25 F2700
G1 Z.55 F1200
G1 X121.533 Y74.557 F9000
G1 Z.35 F1200
G1 E5 F2700
;TYPE:Perimeter
G1 F1800
G1 X118.13 Y74.557 E.17077
G1 X118.13 Y90.857 E.81801
G1 X121.533 Y90.857 E.17077
G1 X122.36 Y89.675 E.07241
G1 X122.505 Y89.72 E.00761
G1 X122.505 Y98.217 E.42641
G1 X121.964 Y98.982 E.04702
G1 X118.755 Y98.982 E.16107
G1 X118.755 Y97.869 E.05587
G1 X60.674 Y97.869 E2.91481
G1 X60.329 Y97.834 E.01741
G1 X60.16 Y97.789 E.00876
G1 X59.937 Y97.694 E.01218
G1 X59.678 Y97.531 E.01538
G1 X59.555 Y97.421 E.00827
G1 X59.555 Y67.981 E1.47749
G1 X59.937 Y67.719 E.02326
G1 X60.16 Y67.624 E.01218
G1 X60.329 Y67.579 E.00876
G1 X60.674 Y67.545 E.01741
G1 X118.755 Y67.545 E2.91481
G1 X118.755 Y66.432 E.05587
G1 X121.964 Y66.432 E.16107
G1 X122.505 Y67.197 E.04702
G1 X122.505 Y75.693 E.42641
G1 X122.36 Y75.739 E.00761
G1 X121.567 Y74.606 E.06939
G1 X121.456 Y75.049 F9000
G1 F1800
G1 X121.353 Y74.902 E.00901
G1 X118.475 Y74.902 E.14445
G1 X118.475 Y90.512 E.78339
G1 X121.353 Y90.512 E.14445
G1 X122.596 Y88.737 E.10875
G1 X122.85 Y88.737 E.01274
G1 X122.85 Y98.327 E.48128
G1 X122.143 Y99.327 E.06149
G1 X118.41 Y99.327 E.18734
G1 X118.41 Y98.214 E.05587
G1 X60.657 Y98.214 E2.89836
G1 X60.267 Y98.175 E.01968
G1 X60.048 Y98.116 E.01139
G1 X59.777 Y98.001 E.01479
G1 X59.47 Y97.808 E.01819
G1 X59.21 Y97.576 E.01747
G1 X59.21 Y67.844 E1.49215
G1 X59.461 Y67.612 E.01716
G1 X59.777 Y67.413 E.01874
G1 X60.048 Y67.298 E.01479
G1 X60.267 Y67.239 E.01139
G1 X60.657 Y67.2 E.01968
G1 X118.41 Y67.2 E2.89836
G1 X118.41 Y66.087 E.05587
G1 X122.143 Y66.087 E.18734
G1 X122.85 Y67.087 E.06149
G1 X122.85 Y76.787 E.48681
G1 X122.705 Y76.833 E.00761
G1 X121.491 Y75.098 E.10627
G1 X121.174 Y75.247 F9000
;TYPE:External perimeter
G1 F1800
G1 X118.82 Y75.247 E.11813
G1 X118.82 Y90.167 E.74877
G1 X121.174 Y90.167 E.11813
G1 X122.417 Y88.392 E.10875
G1 X123.195 Y88.392 E.03906
G1 X123.195 Y98.436 E.50409
G1 X122.321 Y99.672 E.07595
G1 X118.138 Y99.672 E.20991
G1 X118.065 Y99.568 E.00641
G1 X118.065 Y98.558 E.05064
G1 X60.64 Y98.558 E2.88191
G1 X60.205 Y98.515 E.02195
G1 X59.935 Y98.443 E.01402
G1 X59.616 Y98.307 E.01739
G1 X59.262 Y98.084 E.02101
G1 X58.865 Y97.714 E.02727
G1 X58.865 Y67.704 E1.50604
G1 X59.099 Y67.463 E.01689
G1 X59.259 Y67.332 E.01036
G1 X59.616 Y67.106 E.02121
G1 X59.935 Y66.971 E.01739
G1 X60.205 Y66.898 E.01402
G1 X60.64 Y66.855 E.02195
G1 X118.065 Y66.855 E2.88191
G1 X118.065 Y65.846 E.05064
G1 X118.138 Y65.742 E.00641
G1 X122.321 Y65.742 E.20991
G1 X123.195 Y66.977 E.07595
G1 X123.195 Y77.247 E.51538
G1 X122.574 Y77.247 E.03115
G1 X121.208 Y75.296 E.11952
G1 X121.069 Y74.861 F9000
;WIPE_START
G1 F7200
G1 X118.82 Y75.247 E-.85102
G1 X118.82 Y86.191 E-3.89898
;WIPE_END
G1 E-.25 F2700
G1 Z.55 F1200
G1 X122.649 Y77.053 F9000
G1 Z.35 F1200
G1 E5 F2700
;TYPE:Gap fill
;WIDTH:0.168522
G1 F1800
G1 X122.836 Y77.025 E.00257
;WIDTH:0.211189
G1 X123.022 Y76.996 E.00374
;WIPE_START
G1 F7200
G1 X122.836 Y77.025 E-.06726
;WIPE_END
G1 E-4.93274 F2700
G1 Z.55 F1200
G1 X122.402 Y90.776 F9000
G1 Z.35 F1200
G1 E5 F2700
;TYPE:Solid infill
;WIDTH:0.421755
G1 F1800
G1 X122.109 Y90.484 E.02084
G1 X121.908 Y90.772 E.01775
G1 X122.246 Y91.111 E.02417
G1 X122.246 Y91.601 E.02473
G1 X121.706 Y91.061 E.03857
G1 X121.667 Y91.115 E.00336
G1 X121.27 Y91.115 E.02005
G1 X122.246 Y92.092 E.06965
G1 X122.246 Y92.582 E.02473
G1 X120.78 Y91.115 E.10462
G1 X120.29 Y91.115 E.02473
G1 X122.246 Y93.072 E.13959
G1 X122.246 Y93.562 E.02473
G1 X119.799 Y91.115 E.17456
G1 X119.309 Y91.115 E.02473
M73 P1 R115
G1 X122.246 Y94.053 E.20953
G1 X122.246 Y94.543 E.02473
G1 X118.664 Y90.96 E.25557
;WIPE_START
G1 F7200
M73 Q1 S116
G1 X122.246 Y94.543 E-1.80501
G1 X122.246 Y94.053 E-.17464
G1 X119.309 Y91.115 E-1.47984
G1 X119.799 Y91.115 E-.17464
G1 X122.014 Y93.33 E-1.11587
;WIPE_END
G1 E-.25 F2700
G1 Z.55 F1200
G1 X122.402 Y67.735 F9000
G1 Z.35 F1200
G1 E5 F2700
G1 F1800
G1 X121.356 Y66.69 E.07455
G1 X120.866 Y66.69 E.02473
G1 X122.246 Y68.07 E.09845
G1 X122.246 Y68.561 E.02473
G1 X120.376 Y66.69 E.13342
G1 X119.886 Y66.69 E.02473
G1 X122.246 Y69.051 E.16839
G1 X122.246 Y69.541 E.02473
G1 X119.395 Y66.69 E.20336
G1 X119.013 Y66.69 E.01928
G1 X119.013 Y66.798 E.00544
G1 X122.246 Y70.031 E.23063
G1 X122.246 Y70.522 E.02473
G1 X119.013 Y67.288 E.23063
G1 X119.013 Y67.779 E.02473
G1 X122.246 Y71.012 E.23063
G1 X122.246 Y71.502 E.02473
G1 X118.548 Y67.804 E.26383
G1 X118.058 Y67.804 E.02473
G1 X122.246 Y71.992 E.2988
G1 X122.246 Y72.482 E.02473
G1 X117.567 Y67.804 E.33377
G1 X117.077 Y67.804 E.02473
G1 X122.246 Y72.973 E.36874
G1 X122.246 Y73.463 E.02473
G1 X116.587 Y67.804 E.40371
G1 X116.097 Y67.804 E.02473
G1 X122.246 Y73.953 E.43868
G1 X122.246 Y74.443 E.02473
G1 X115.607 Y67.804 E.47365
G1 X115.116 Y67.804 E.02473
G1 X122.402 Y75.089 E.51969
;WIPE_START
G1 F7200
G1 X115.116 Y67.804 E-3.67039
G1 X115.607 Y67.804 E-.17464
G1 X117.403 Y69.6 E-.90497
;WIPE_END
G1 E-.25 F2700
G1 Z.55 F1200
G1 X121.276 Y74.454 F9000
G1 Z.35 F1200
G1 E5 F2700
G1 F1800
G1 X114.626 Y67.804 E.47438
G1 X114.136 Y67.804 E.02473
G1 X120.631 Y74.298 E.4633
G1 X120.14 Y74.298 E.02473
G1 X113.646 Y67.804 E.4633
G1 X113.155 Y67.804 E.02473
G1 X119.65 Y74.298 E.4633
G1 X119.16 Y74.298 E.02473
G1 X112.665 Y67.804 E.4633
G1 X112.175 Y67.804 E.02473
G1 X118.67 Y74.298 E.4633
G1 X118.179 Y74.298 E.02473
G1 X111.685 Y67.804 E.4633
G1 X111.194 Y67.804 E.02473
G1 X117.871 Y74.48 E.47629
G1 X117.871 Y74.971 E.02473
G1 X110.704 Y67.804 E.51126
G1 X110.214 Y67.804 E.02473
G1 X117.871 Y75.461 E.54623
G1 X117.871 Y75.951 E.02473
G1 X109.724 Y67.804 E.5812
G1 X109.234 Y67.804 E.02473
G1 X117.871 Y76.441 E.61617
G1 X117.871 Y76.932 E.02473
G1 X108.743 Y67.804 E.65114
G1 X108.253 Y67.804 E.02473
G1 X117.871 Y77.422 E.68611
G1 X117.871 Y77.912 E.02473
G1 X107.763 Y67.804 E.72108
G1 X107.273 Y67.804 E.02473
G1 X117.871 Y78.402 E.75605
G1 X117.871 Y78.893 E.02473
G1 X106.782 Y67.804 E.79102
G1 X106.292 Y67.804 E.02473
G1 X117.871 Y79.383 E.82599
G1 X117.871 Y79.873 E.02473
G1 X105.802 Y67.804 E.86096
G1 X105.312 Y67.804 E.02473
G1 X117.871 Y80.363 E.89593
G1 X117.871 Y80.853 E.02473
G1 X104.822 Y67.804 E.9309
G1 X104.331 Y67.804 E.02473
G1 X117.871 Y81.344 E.96587
G1 X117.871 Y81.834 E.02473
G1 X115.013 Y78.976 E.20388
G1 X115.013 Y79.466 E.02473
G1 X117.871 Y82.324 E.20388
G1 X117.871 Y82.814 E.02473
G1 X115.013 Y79.956 E.20388
G1 X115.013 Y80.446 E.02473
G1 X117.871 Y83.305 E.20388
G1 X117.871 Y83.795 E.02473
G1 X115.013 Y80.937 E.20388
G1 X115.013 Y81.427 E.02473
G1 X117.871 Y84.285 E.20388
G1 X117.871 Y84.775 E.02473
G1 X115.013 Y81.917 E.20388
G1 X115.013 Y82.407 E.02473
G1 X117.871 Y85.265 E.20388
G1 X117.871 Y85.756 E.02473
G1 X115.013 Y82.898 E.20388
G1 X115.013 Y83.388 E.02473
G1 X117.871 Y86.246 E.20388
G1 X117.871 Y86.736 E.02473
G1 X115.013 Y83.878 E.20388
G1 X115.013 Y84.368 E.02473
G1 X117.871 Y87.226 E.20388
G1 X117.871 Y87.717 E.02473
G1 X115.013 Y84.858 E.20388
G1 X115.013 Y85.349 E.02473
G1 X117.871 Y88.207 E.20388
G1 X117.871 Y88.697 E.02473
G1 X115.013 Y85.839 E.20388
G1 X115.013 Y86.329 E.02473
G1 X117.871 Y89.187 E.20388
G1 X117.871 Y89.678 E.02473
G1 X115.013 Y86.819 E.20388
G1 X115.013 Y87.166 E.01751
G1 X114.87 Y87.166 E.00722
G1 X118.027 Y90.323 E.22517
;WIPE_START
G1 F7200
G1 X114.87 Y87.166 E-1.59029
G1 X115.013 Y87.166 E-.05101
G1 X115.013 Y86.819 E-.12364
G1 X117.871 Y89.678 E-1.43997
G1 X117.871 Y89.187 E-.17464
G1 X115.151 Y86.467 E-1.37045
;WIPE_END
G1 E-.25 F2700
G1 Z.55 F1200
G1 X114.225 Y87.011 F9000
G1 Z.35 F1200
G1 E5 F2700
G1 F1800
G1 X117.871 Y90.658 E.26014
G1 X117.871 Y91.115 E.02307
G1 X118.329 Y91.115 E.02307
G1 X122.246 Y95.033 E.27947
G1 X122.246 Y95.523 E.02473
G1 X113.89 Y87.166 E.59613
G1 X113.399 Y87.166 E.02473
G1 X122.246 Y96.013 E.6311
G1 X122.246 Y96.504 E.02473
G1 X112.909 Y87.166 E.66607
G1 X112.419 Y87.166 E.02473
G1 X122.246 Y96.994 E.70104
G1 X122.246 Y97.484 E.02473
G1 X111.929 Y87.166 E.73601
G1 X111.438 Y87.166 E.02473
G1 X122.246 Y97.974 E.77098
G1 X122.246 Y98.135 E.00809
G1 X122.11 Y98.328 E.01194
G1 X110.948 Y87.166 E.7962
G1 X110.458 Y87.166 E.02473
G1 X121.907 Y98.615 E.81669
G1 X121.83 Y98.723 E.00669
G1 X121.525 Y98.723 E.01541
G1 X109.968 Y87.166 E.82441
G1 X109.477 Y87.166 E.02473
G1 X121.034 Y98.723 E.82441
G1 X120.544 Y98.723 E.02473
M73 P1 R114
G1 X108.987 Y87.166 E.82441
G1 X108.497 Y87.166 E.02473
G1 X120.054 Y98.723 E.82441
G1 X119.564 Y98.723 E.02473
G1 X119.013 Y98.173 E.03927
G1 X119.013 Y98.663 E.02473
G1 X119.229 Y98.879 E.01538
;WIPE_START
G1 F7200
G1 X119.013 Y98.663 E-.10859
G1 X119.013 Y98.173 E-.17464
G1 X119.564 Y98.723 E-.27739
G1 X120.054 Y98.723 E-.17464
G1 X112.085 Y90.755 E-4.01473
;WIPE_END
G1 E-.25 F2700
G1 Z.55 F1200
G1 X118.606 Y97.765 F9000
G1 Z.35 F1200
G1 E5 F2700
G1 F1800
G1 X108.007 Y87.166 E.75606
G1 X107.517 Y87.166 E.02473
G1 X117.96 Y97.61 E.74499
G1 X117.47 Y97.61 E.02473
G1 X107.026 Y87.166 E.74499
G1 X106.536 Y87.166 E.02473
G1 X116.98 Y97.61 E.74499
G1 X116.489 Y97.61 E.02473
G1 X106.046 Y87.166 E.74499
G1 X105.556 Y87.166 E.02473
G1 X115.999 Y97.61 E.74499
G1 X115.509 Y97.61 E.02473
G1 X105.065 Y87.166 E.74499
G1 X104.575 Y87.166 E.02473
G1 X115.019 Y97.61 E.74499
G1 X114.529 Y97.61 E.02473
M73 Q1 S115
G1 X104.085 Y87.166 E.74499
G1 X103.595 Y87.166 E.02473
G1 X114.038 Y97.61 E.74499
G1 X113.548 Y97.61 E.02473
G1 X103.105 Y87.166 E.74499
G1 X102.614 Y87.166 E.02473
G1 X113.058 Y97.61 E.74499
G1 X112.568 Y97.61 E.02473
G1 X102.124 Y87.166 E.74499
G1 X101.634 Y87.166 E.02473
G1 X112.077 Y97.61 E.74499
G1 X111.587 Y97.61 E.02473
G1 X101.144 Y87.166 E.74499
G1 X100.653 Y87.166 E.02473
G1 X111.097 Y97.61 E.74499
G1 X110.607 Y97.61 E.02473
G1 X100.163 Y87.166 E.74499
G1 X99.673 Y87.166 E.02473
G1 X110.117 Y97.61 E.74499
G1 X109.626 Y97.61 E.02473
G1 X99.183 Y87.166 E.74499
G1 X98.692 Y87.166 E.02473
G1 X109.136 Y97.61 E.74499
G1 X108.646 Y97.61 E.02473
G1 X98.202 Y87.166 E.74499
G1 X97.712 Y87.166 E.02473
G1 X108.156 Y97.61 E.74499
G1 X107.665 Y97.61 E.02473
G1 X97.222 Y87.166 E.74499
G1 X96.732 Y87.166 E.02473
G1 X107.175 Y97.61 E.74499
G1 X106.685 Y97.61 E.02473
G1 X96.241 Y87.166 E.74499
G1 X95.751 Y87.166 E.02473
G1 X106.195 Y97.61 E.74499
G1 X105.704 Y97.61 E.02473
G1 X95.261 Y87.166 E.74499
G1 X94.771 Y87.166 E.02473
G1 X105.214 Y97.61 E.74499
G1 X104.724 Y97.61 E.02473
G1 X94.28 Y87.166 E.74499
G1 X93.79 Y87.166 E.02473
G1 X104.234 Y97.61 E.74499
G1 X103.744 Y97.61 E.02473
G1 X93.3 Y87.166 E.74499
G1 X92.81 Y87.166 E.02473
G1 X103.253 Y97.61 E.74499
G1 X102.763 Y97.61 E.02473
G1 X92.319 Y87.166 E.74499
G1 X91.829 Y87.166 E.02473
G1 X102.273 Y97.61 E.74499
G1 X101.783 Y97.61 E.02473
G1 X91.339 Y87.166 E.74499
G1 X90.849 Y87.166 E.02473
G1 X101.292 Y97.61 E.74499
G1 X100.802 Y97.61 E.02473
G1 X90.359 Y87.166 E.74499
G1 X89.868 Y87.166 E.02473
G1 X100.312 Y97.61 E.74499
G1 X99.822 Y97.61 E.02473
G1 X89.378 Y87.166 E.74499
G1 X88.888 Y87.166 E.02473
G1 X99.331 Y97.61 E.74499
G1 X98.841 Y97.61 E.02473
G1 X88.398 Y87.166 E.74499
G1 X87.907 Y87.166 E.02473
G1 X98.351 Y97.61 E.74499
G1 X97.861 Y97.61 E.02473
G1 X87.417 Y87.166 E.74499
G1 X86.927 Y87.166 E.02473
G1 X97.371 Y97.61 E.74499
G1 X96.88 Y97.61 E.02473
G1 X86.437 Y87.166 E.74499
G1 X85.947 Y87.166 E.02473
G1 X96.39 Y97.61 E.74499
G1 X95.9 Y97.61 E.02473
G1 X85.456 Y87.166 E.74499
G1 X84.966 Y87.166 E.02473
G1 X95.41 Y97.61 E.74499
G1 X94.919 Y97.61 E.02473
G1 X84.476 Y87.166 E.74499
