; generated by PrusaSlicer 2.4.1+arm64 on 2023-03-07 at 20:57:56 UTC


;
;
; 

; external perimeters extrusion width = 0.45mm
; perimeters extrusion width = 0.45mm
; infill extrusion width = 0.45mm
; solid infill extrusion width = 0.45mm
; top infill extrusion width = 0.40mm
; support material extrusion width = 0.35mm
; first layer extrusion width = 0.42mm

M73 P0 R82
M73 Q0 S83
M201 X1000 Y1000 Z200 E5000 ; sets maximum accelerations, mm/sec^2
M203 X200 Y200 Z12 E120 ; sets maximum feedrates, mm / sec
M204 P1250 R1250 T1250 ; sets acceleration (P, T) and retract acceleration (R), mm/sec^2
M205 X8.00 Y8.00 Z0.40 E4.50 ; sets the jerk limits, mm/sec
M205 S0 T0 ; sets the minimum extruding and travel feed rate, mm/sec
M107
;TYPE:Custom
M862.3 P "MK3S" ; printer model check
M862.1 P0.4 ; nozzle diameter check
M115 U3.11.0 ; tell printer latest fw version
G90 ; use absolute coordinates
M83 ; extruder relative mode
M104 S210 ; set extruder temp
M140 S60 ; set bed temp
M190 S60 ; wait for bed temp
M109 S210 ; wait for extruder temp
G28 W ; home all without mesh bed level
G80 ; mesh bed leveling

G1 Z0.2 F720
G1 Y-3 F1000 ; go outside print area
G92 E0
G1 X60 E9 F1000 ; intro line
G1 X100 E12.5 F1000 ; intro line

G92 E0
M221 S95

; Don't change E values below. Excessive value can damage the printer.

G21 ; set units to millimeters
G90 ; use absolute coordinates
M83 ; use relative distances for extrusion
; Filament gcode
M107
;LAYER_CHANGE
;Z:0.35
;HEIGHT:0.35
;BEFORE_LAYER_CHANGE
G92 E0.0
;0.35


G1 Z.35 F1200
;AFTER_LAYER_CHANGE
;0.35
G1 E-5 F2700
G1 Z.55 F1200
G1 X51.098 Y55.723 F9000
G1 Z.35 F1200
G1 E5 F2700
;TYPE:Skirt/Brim
;WIDTH:0.42
G1 F1800
G1 X53 Y54.935 E.10332
G1 X59.077 Y54.936 E.30499
G1 X122.692 Y56.767 E3.19388
G1 X123.931 Y56.908 E.06256
G1 X124.869 Y57.154 E.04869
G1 X125.63 Y57.464 E.04123
G1 X126.833 Y58.171 E.07004
G1 X127.879 Y59.102 E.07026
G1 X128.594 Y59.999 E.05755
G1 X129.037 Y60.735 E.04315
G1 X129.408 Y61.59 E.04677
G1 X129.747 Y62.83 E.06449
G1 X129.858 Y63.933 E.05564
G1 X129.865 Y97.875 E1.7034
G1 X129.8 Y98.809 E.047
M73 Q0 S82
G1 X129.475 Y100.235 E.07337
G1 X120.527 Y124.505 E1.29817
G1 X119.675 Y125.682 E.07293
G1 X118.003 Y126.264 E.08883
G1 X92.639 Y126.264 E1.27295
G1 X91.293 Y125.903 E.06993
G1 X53.982 Y104.341 E2.16265
G1 X53.102 Y103.78 E.05239
G1 X52.121 Y102.898 E.0662
G1 X51.406 Y102.001 E.05755
G1 X50.963 Y101.265 E.04315
G1 X50.592 Y100.41 E.04677
G1 X50.253 Y99.17 E.06449
G1 X50.142 Y98.067 E.05564
G1 X50.135 Y57.8 E2.02083
G1 X50.923 Y55.898 E.10332
G1 X51.056 Y55.765 E.00941
G1 X51.299 Y56.009 F9000
G1 F1800
G1 X51.342 Y55.967 E.00301
G1 X53 Y55.28 E.09007
G1 X59.067 Y55.281 E.3045
G1 X122.667 Y57.111 E3.19314
G1 X123.85 Y57.243 E.05973
G1 X124.749 Y57.477 E.04659
G1 X125.498 Y57.783 E.04061
G1 X126.626 Y58.447 E.06573
G1 X127.616 Y59.326 E.06644
G1 X128.3 Y60.179 E.05484
G1 X128.734 Y60.901 E.04229
G1 X129.089 Y61.722 E.04492
G1 X129.41 Y62.903 E.06141
G1 X129.514 Y63.958 E.05318
G1 X129.52 Y97.875 E1.70217
G1 X129.456 Y98.782 E.04564
G1 X129.151 Y100.115 E.06863
G1 X120.203 Y124.386 E1.29817
G1 X119.387 Y125.467 E.068
G1 X118.003 Y125.919 E.07308
G1 X92.639 Y125.919 E1.27295
G1 X91.465 Y125.605 E.06096
G1 X54.155 Y104.042 E2.16265
G1 X53.309 Y103.504 E.05034
G1 X52.384 Y102.674 E.06238
G1 X51.7 Y101.821 E.05484
G1 X51.266 Y101.099 E.04228
G1 X50.911 Y100.278 E.04492
G1 X50.59 Y99.097 E.06141
G1 X50.486 Y98.042 E.05318
G1 X50.48 Y57.8 E2.01959
G1 X51.167 Y56.142 E.09007
G1 X51.257 Y56.052 E.0064
;WIPE_START
G1 F7200
G1 X51.342 Y55.967 E-.04275
G1 X53 Y55.28 E-.63936
G1 X59.067 Y55.281 E-2.1615
G1 X64.416 Y55.435 E-1.90639
;WIPE_END
G1 E-.25 F2700
G1 Z.55 F1200
G1 X118.003 Y123.575 F9000
G1 Z.35 F1200
G1 E5 F2700
;TYPE:Support material
G1 F1800
G1 X92.639 Y123.575 E1.27295
G1 X92.639 Y102.985 E1.0333
G1 X118.003 Y102.985 E1.27295
G1 X118.003 Y123.523 E1.03071
G1 X117.591 Y123.419 F9000
M73 P0 R81
G1 F1800
G1 X117.591 Y103.295 E1.00994
G1 X117.208 Y103.295 E.01923
G1 X117.208 Y123.264 E1.00215
G1 X116.825 Y123.264 E.01923
G1 X116.825 Y103.295 E1.00215
G1 X116.441 Y103.295 E.01923
G1 X116.441 Y123.264 E1.00215
G1 X116.058 Y123.264 E.01923
G1 X116.058 Y103.295 E1.00215
G1 X115.675 Y103.295 E.01923
G1 X115.675 Y123.264 E1.00215
G1 X115.292 Y123.264 E.01923
G1 X115.292 Y103.295 E1.00215
G1 X114.909 Y103.295 E.01923
G1 X114.909 Y123.264 E1.00215
G1 X114.525 Y123.264 E.01923
G1 X114.525 Y103.295 E1.00215
G1 X114.142 Y103.295 E.01923
G1 X114.142 Y123.264 E1.00215
G1 X113.759 Y123.264 E.01923
G1 X113.759 Y103.295 E1.00215
G1 X113.376 Y103.295 E.01923
G1 X113.376 Y123.264 E1.00215
G1 X112.993 Y123.264 E.01923
G1 X112.993 Y103.295 E1.00215
G1 X112.609 Y103.295 E.01923
G1 X112.609 Y123.264 E1.00215
G1 X112.226 Y123.264 E.01923
G1 X112.226 Y103.295 E1.00215
G1 X111.843 Y103.295 E.01923
G1 X111.843 Y123.264 E1.00215
G1 X111.46 Y123.264 E.01923
G1 X111.46 Y103.295 E1.00215
G1 X111.077 Y103.295 E.01923
G1 X111.077 Y123.264 E1.00215
G1 X110.693 Y123.264 E.01923
G1 X110.693 Y103.295 E1.00215
G1 X110.31 Y103.295 E.01923
G1 X110.31 Y123.264 E1.00215
G1 X109.927 Y123.264 E.01923
G1 X109.927 Y103.295 E1.00215
G1 X109.544 Y103.295 E.01923
G1 X109.544 Y123.264 E1.00215
G1 X109.16 Y123.264 E.01923
G1 X109.16 Y103.295 E1.00215
G1 X108.777 Y103.295 E.01923
G1 X108.777 Y123.264 E1.00215
G1 X108.394 Y123.264 E.01923
G1 X108.394 Y103.295 E1.00215
G1 X108.011 Y103.295 E.01923
G1 X108.011 Y123.264 E1.00215
G1 X107.628 Y123.264 E.01923
G1 X107.628 Y103.295 E1.00215
G1 X107.244 Y103.295 E.01923
G1 X107.244 Y123.264 E1.00215
G1 X106.861 Y123.264 E.01923
G1 X106.861 Y103.295 E1.00215
G1 X106.478 Y103.295 E.01923
M73 P1 R81
M73 Q1 S82
G1 X106.478 Y123.264 E1.00215
G1 X106.095 Y123.264 E.01923
G1 X106.095 Y103.295 E1.00215
G1 X105.712 Y103.295 E.01923
G1 X105.712 Y123.264 E1.00215
G1 X105.328 Y123.264 E.01923
G1 X105.328 Y103.295 E1.00215
G1 X104.945 Y103.295 E.01923
G1 X104.945 Y123.264 E1.00215
G1 X104.562 Y123.264 E.01923
G1 X104.562 Y103.295 E1.00215
G1 X104.179 Y103.295 E.01923
G1 X104.179 Y123.264 E1.00215
G1 X103.796 Y123.264 E.01923
G1 X103.796 Y103.295 E1.00215
G1 X103.412 Y103.295 E.01923
G1 X103.412 Y123.264 E1.00215
G1 X103.029 Y123.264 E.01923
G1 X103.029 Y103.295 E1.00215
G1 X102.646 Y103.295 E.01923
G1 X102.646 Y123.264 E1.00215
G1 X102.263 Y123.264 E.01923
G1 X102.263 Y103.295 E1.00215
G1 X101.88 Y103.295 E.01923
G1 X101.88 Y123.264 E1.00215
G1 X101.496 Y123.264 E.01923
G1 X101.496 Y103.295 E1.00215
G1 X101.113 Y103.295 E.01923
G1 X101.113 Y123.264 E1.00215
G1 X100.73 Y123.264 E.01923
G1 X100.73 Y103.295 E1.00215
G1 X100.347 Y103.295 E.01923
G1 X100.347 Y123.264 E1.00215
G1 X99.963 Y123.264 E.01923
G1 X99.963 Y103.295 E1.00215
G1 X99.58 Y103.295 E.01923
G1 X99.58 Y123.264 E1.00215
G1 X99.197 Y123.264 E.01923
G1 X99.197 Y103.295 E1.00215
G1 X98.814 Y103.295 E.01923
G1 X98.814 Y123.264 E1.00215
G1 X98.431 Y123.264 E.01923
G1 X98.431 Y103.295 E1.00215
G1 X98.047 Y103.295 E.01923
G1 X98.047 Y123.264 E1.00215
G1 X97.664 Y123.264 E.01923
G1 X97.664 Y103.295 E1.00215
G1 X97.281 Y103.295 E.01923
G1 X97.281 Y123.264 E1.00215
G1 X96.898 Y123.264 E.01923
G1 X96.898 Y103.295 E1.00215
G1 X96.515 Y103.295 E.01923
G1 X96.515 Y123.264 E1.00215
G1 X96.131 Y123.264 E.01923
G1 X96.131 Y103.295 E1.00215
G1 X95.748 Y103.295 E.01923
G1 X95.748 Y123.264 E1.00215
G1 X95.365 Y123.264 E.01923
G1 X95.365 Y103.295 E1.00215
G1 X94.982 Y103.295 E.01923
M73 Q1 S81
G1 X94.982 Y123.264 E1.00215
G1 X94.599 Y123.264 E.01923
G1 X94.599 Y103.295 E1.00215
G1 X94.215 Y103.295 E.01923
G1 X94.215 Y123.264 E1.00215
G1 X93.832 Y123.264 E.01923
G1 X93.832 Y103.295 E1.00215
G1 X93.449 Y103.295 E.01923
G1 X93.449 Y123.264 E1.00215
G1 X93.066 Y123.264 E.01923
G1 X93.066 Y103.14 E1.00994
;WIPE_START
G1 F7200
G1 X93.066 Y116.474 E-4.75
;WIPE_END
G1 E-.25 F2700
G1 Z.55 F1200
G1 X70.6 Y82.525 F9000
G1 Z.35 F1200
G1 E5 F2700
;TYPE:Perimeter
G1 F1800
G1 X112.4 Y82.525 E2.09775
G1 X112.4 Y79.525 E.15056
G1 X114.204 Y79.525 E.09053
G1 X114.988 Y79.455 E.03953
G1 X115.787 Y79.236 E.04156
G1 X116.534 Y78.879 E.04156
G1 X117.206 Y78.396 E.04156
G1 X117.783 Y77.8 E.0416
G1 X118.247 Y77.105 E.04194
G1 X118.575 Y76.354 E.04112
G1 X118.768 Y75.549 E.04156
G1 X118.814 Y74.722 E.04156
G1 X118.714 Y73.9 E.04156
G1 X118.476 Y73.133 E.0403
G1 X117.875 Y71.797 E.07353
G1 X117.197 Y70.526 E.07228
G1 X116.435 Y69.304 E.07228
G1 X115.592 Y68.136 E.07228
G1 X114.9 Y67.301 E.05447
G1 X114.9 Y60.35 E.34883
G1 X122.465 Y60.35 E.37967
G1 X123.084 Y60.398 E.03114
G1 X123.653 Y60.533 E.02937
G1 X124.195 Y60.755 E.02937
G1 X124.692 Y61.056 E.02917
G1 X125.192 Y61.485 E.03306
G1 X125.567 Y61.93 E.0292
G1 X125.87 Y62.43 E.02937
G1 X126.092 Y62.973 E.02943
G1 X126.211 Y63.469 E.02561
G1 X126.275 Y64.166 E.03512
G1 X126.275 Y97.84 E1.68995
G1 X126.227 Y98.459 E.03114
G1 X126.092 Y99.028 E.02937
G1 X125.87 Y99.57 E.02937
G1 X125.569 Y100.067 E.02917
G1 X125.14 Y100.567 E.03306
G1 X124.695 Y100.942 E.0292
G1 X124.195 Y101.245 E.02937
G1 X123.652 Y101.467 E.02943
G1 X123.156 Y101.586 E.02561
G1 X122.459 Y101.65 E.03512
G1 X57.535 Y101.65 E3.25826
G1 X56.916 Y101.602 E.03114
G1 X56.347 Y101.467 E.02937
G1 X55.805 Y101.245 E.02937
G1 X55.308 Y100.944 E.02917
G1 X54.808 Y100.515 E.03306
G1 X54.433 Y100.07 E.0292
G1 X54.13 Y99.57 E.02937
G1 X53.908 Y99.027 E.02943
G1 X53.789 Y98.531 E.02561
G1 X53.725 Y97.834 E.03512
G1 X53.725 Y58.525 E1.97276
G1 X58.627 Y58.525 E.24604
G1 X60.1 Y59.998 E.10454
G1 X60.1 Y74.914 E.7486
G1 X60.167 Y75.683 E.03873
G1 X60.377 Y76.466 E.04071
G1 X60.72 Y77.202 E.04071
G1 X61.185 Y77.866 E.04071
G1 X61.759 Y78.44 E.04071
G1 X62.423 Y78.905 E.04071
G1 X63.158 Y79.248 E.04071
G1 X63.942 Y79.458 E.04071
G1 X64.711 Y79.525 E.03873
G1 X70.6 Y79.525 E.29557
G1 X70.6 Y82.465 E.14755
G1 X70.945 Y82.18 F9000
G1 F1800
G1 X112.055 Y82.18 E2.06313
G1 X112.055 Y79.18 E.15056
G1 X114.188 Y79.18 E.10706
G1 X114.927 Y79.114 E.03722
G1 X115.666 Y78.911 E.03846
G1 X116.358 Y78.581 E.03846
G1 X116.98 Y78.134 E.03846
G1 X117.513 Y77.582 E.03849
G1 X117.943 Y76.939 E.03885
G1 X118.247 Y76.244 E.03805
G1 X118.425 Y75.499 E.03846
G1 X118.468 Y74.733 E.03846
G1 X118.375 Y73.973 E.03846
G1 X118.153 Y73.255 E.03769
G1 X117.565 Y71.949 E.07188
G1 X116.898 Y70.699 E.07111
G1 X116.148 Y69.497 E.07111
G1 X115.32 Y68.347 E.07111
G1 X114.555 Y67.425 E.06013
G1 X114.555 Y60.005 E.37238
G1 X122.478 Y60.005 E.39765
G1 X123.137 Y60.056 E.03316
G1 X123.759 Y60.204 E.03207
G1 X124.35 Y60.446 E.03207
G1 X124.895 Y60.776 E.03195
G1 X125.438 Y61.241 E.0359
G1 X125.848 Y61.728 E.03196
G1 X126.179 Y62.275 E.03207
G1 X126.421 Y62.867 E.0321
G1 X126.552 Y63.413 E.02819
G1 X126.62 Y64.15 E.03716
G1 X126.62 Y97.853 E1.69142
G1 X126.569 Y98.512 E.03316
M73 P1 R80
G1 X126.421 Y99.134 E.03207
G1 X126.179 Y99.725 E.03207
G1 X125.849 Y100.27 E.03194
G1 X125.384 Y100.813 E.0359
G1 X124.897 Y101.223 E.03196
G1 X124.35 Y101.554 E.03207
G1 X123.758 Y101.796 E.0321
G1 X123.212 Y101.927 E.02819
G1 X122.475 Y101.995 E.03716
G1 X57.522 Y101.995 E3.25973
G1 X56.863 Y101.944 E.03316
G1 X56.241 Y101.796 E.03207
G1 X55.65 Y101.554 E.03207
G1 X55.105 Y101.224 E.03195
G1 X54.562 Y100.759 E.0359
G1 X54.152 Y100.272 E.03196
G1 X53.821 Y99.725 E.03207
G1 X53.579 Y99.133 E.0321
G1 X53.448 Y98.587 E.02819
G1 X53.38 Y97.85 E.03716
G1 X53.38 Y58.18 E1.99086
G1 X58.77 Y58.18 E.27052
G1 X60.445 Y59.855 E.11888
G1 X60.445 Y74.899 E.75502
G1 X60.508 Y75.623 E.03646
G1 X60.703 Y76.348 E.03768
G1 X61.02 Y77.028 E.03768
G1 X61.451 Y77.643 E.03768
G1 X61.982 Y78.174 E.03768
G1 X62.596 Y78.605 E.03768
G1 X63.277 Y78.922 E.03768
G1 X64.002 Y79.117 E.03768
G1 X64.726 Y79.18 E.03646
G1 X70.945 Y79.18 E.31212
G1 X70.945 Y82.12 E.14755
G1 X71.29 Y81.835 F9000
;TYPE:External perimeter
G1 F1800
G1 X111.71 Y81.835 E2.02851
G1 X111.71 Y78.835 E.15056
G1 X114.173 Y78.835 E.1236
G1 X114.866 Y78.773 E.0349
G1 X115.545 Y78.587 E.03537
G1 X116.181 Y78.283 E.03537
G1 X116.753 Y77.872 E.03537
G1 X117.244 Y77.365 E.03538
G1 X117.639 Y76.772 E.03576
G1 X117.919 Y76.134 E.03497
G1 X118.083 Y75.449 E.03537
G1 X118.122 Y74.745 E.03537
G1 X118.036 Y74.045 E.03537
G1 X117.83 Y73.378 E.03508
G1 X117.255 Y72.101 E.07024
G1 X116.599 Y70.872 E.06995
G1 X115.862 Y69.689 E.06995
G1 X115.047 Y68.559 E.06995
G1 X114.21 Y67.549 E.06579
G1 X114.21 Y59.66 E.39593
G1 X122.492 Y59.66 E.41563
G1 X123.191 Y59.714 E.03518
G1 X123.865 Y59.875 E.03477
G1 X124.506 Y60.137 E.03477
G1 X125.098 Y60.495 E.03472
G1 X125.684 Y60.997 E.03873
G1 X126.129 Y61.527 E.03472
G1 X126.488 Y62.119 E.03476
G1 X126.751 Y62.761 E.03478
G1 X126.894 Y63.357 E.03077
G1 X126.965 Y64.135 E.0392
G1 X126.965 Y97.867 E1.69288
G1 X126.911 Y98.566 E.03518
G1 X126.75 Y99.24 E.03477
M73 P2 R80
G1 X126.488 Y99.881 E.03477
G1 X126.13 Y100.473 E.03472
G1 X125.628 Y101.059 E.03873
G1 X125.098 Y101.504 E.03472
G1 X124.506 Y101.863 E.03476
G1 X123.864 Y102.126 E.03478
G1 X123.268 Y102.269 E.03077
G1 X122.49 Y102.34 E.0392
G1 X57.508 Y102.34 E3.26119
G1 X56.809 Y102.286 E.03518
M73 Q2 S81
G1 X56.135 Y102.125 E.03477
G1 X55.494 Y101.863 E.03477
G1 X54.902 Y101.505 E.03472
G1 X54.316 Y101.003 E.03873
G1 X53.871 Y100.473 E.03472
G1 X53.512 Y99.881 E.03476
G1 X53.249 Y99.239 E.03478
G1 X53.106 Y98.643 E.03077
G1 X53.035 Y97.865 E.0392
G1 X53.035 Y57.835 E2.00896
G1 X58.913 Y57.835 E.29499
G1 X60.79 Y59.712 E.13322
G1 X60.79 Y74.884 E.76143
G1 X60.849 Y75.563 E.03419
G1 X61.028 Y76.23 E.03465
G1 X61.32 Y76.855 E.03465
G1 X61.716 Y77.421 E.03465
G1 X62.204 Y77.909 E.03465
G1 X62.77 Y78.305 E.03465
G1 X63.395 Y78.597 E.03465
G1 X64.062 Y78.776 E.03465
G1 X64.741 Y78.835 E.03419
G1 X71.29 Y78.835 E.32868
G1 X71.29 Y81.775 E.14755
G1 X71.439 Y82.206 F9000
;WIPE_START
G1 F7200
G1 X84.623 Y81.795 E-4.75
;WIPE_END
G1 E-.25 F2700
G1 Z.55 F1200
G1 X124.25 Y60.91 F9000
G1 Z.35 F1200
G1 E5 F2700
;TYPE:Solid infill
;WIDTH:0.421278
G1 F1800
G1 X125.009 Y61.668 E.05406
G1 X125.356 Y62.081 E.02716
G1 X125.638 Y62.547 E.02745
G1 X125.805 Y62.954 E.02214
G1 X123.671 Y60.82 E.15199
G1 X123.574 Y60.78 E.00531
G1 X123.013 Y60.652 E.02895
G1 X125.964 Y63.602 E.21018
G1 X126.013 Y64.141 E.02726
G1 X122.482 Y60.611 E.25152
G1 X121.991 Y60.608 E.02477
G1 X126.017 Y64.634 E.28679
G1 X126.017 Y65.124 E.02466
G1 X121.501 Y60.608 E.32166
G1 X121.012 Y60.608 E.02466
G1 X126.017 Y65.613 E.35653
G1 X126.017 Y66.103 E.02466
G1 X120.522 Y60.608 E.39141
G1 X120.033 Y60.608 E.02466
G1 X126.017 Y66.592 E.42628
G1 X126.017 Y67.082 E.02466
G1 X119.543 Y60.608 E.46116
G1 X119.053 Y60.608 E.02466
G1 X126.017 Y67.572 E.49603
G1 X126.017 Y68.061 E.02466
G1 X118.564 Y60.608 E.5309
G1 X118.074 Y60.608 E.02466
G1 X126.017 Y68.551 E.56578
G1 X126.017 Y69.04 E.02466
G1 X117.585 Y60.608 E.60065
G1 X117.095 Y60.608 E.02466
G1 X126.017 Y69.53 E.63553
G1 X126.017 Y70.019 E.02466
G1 X116.606 Y60.608 E.6704
G1 X116.116 Y60.608 E.02466
G1 X126.017 Y70.509 E.70528
G1 X126.017 Y70.998 E.02466
G1 X115.627 Y60.608 E.74015
G1 X115.158 Y60.608 E.02358
G1 X115.158 Y60.63 E.00108
G1 X126.017 Y71.488 E.7735
G1 X126.017 Y71.978 E.02466
G1 X115.158 Y61.119 E.7735
G1 X115.158 Y61.609 E.02466
G1 X126.017 Y72.467 E.7735
G1 X126.017 Y72.957 E.02466
G1 X115.158 Y62.099 E.7735
G1 X115.158 Y62.588 E.02466
G1 X126.017 Y73.446 E.7735
G1 X126.017 Y73.936 E.02466
G1 X115.158 Y63.078 E.7735
G1 X115.158 Y63.567 E.02466
G1 X126.017 Y74.425 E.7735
G1 X126.017 Y74.915 E.02466
G1 X115.158 Y64.057 E.7735
G1 X115.158 Y64.546 E.02466
G1 X126.017 Y75.404 E.7735
G1 X126.017 Y75.894 E.02466
G1 X115.158 Y65.036 E.7735
G1 X115.158 Y65.525 E.02466
G1 X126.017 Y76.384 E.7735
G1 X126.017 Y76.873 E.02466
G1 X115.158 Y66.015 E.7735
G1 X115.158 Y66.505 E.02466
G1 X126.017 Y77.363 E.7735
G1 X126.017 Y77.852 E.02466
G1 X115.158 Y66.994 E.7735
G1 X115.158 Y67.207 E.01074
G1 X115.797 Y67.978 E.05042
G1 X116.171 Y68.496 E.03219
G1 X126.017 Y78.342 E.70137
G1 X126.017 Y78.831 E.02466
G1 X117.154 Y69.969 E.63134
G1 X117.421 Y70.397 E.02543
G1 X117.797 Y71.101 E.04019
G1 X126.017 Y79.321 E.58556
G1 X126.017 Y79.81 E.02466
G1 X118.286 Y72.08 E.55072
G1 X118.686 Y72.97 E.04917
