; generated by PrusaSlicer 2.4.1+arm64 on 2023-04-03 at 15:35:36 UTC


;
;
; 

; external perimeters extrusion width = 0.45mm
; perimeters extrusion width = 0.45mm
; infill extrusion width = 0.45mm
; solid infill extrusion width = 0.45mm
; top infill extrusion width = 0.40mm
; support material extrusion width = 0.35mm
; first layer extrusion width = 0.42mm

; external perimeters extrusion width = 0.45mm
; perimeters extrusion width = 0.45mm
; infill extrusion width = 0.45mm
; solid infill extrusion width = 0.45mm
; top infill extrusion width = 0.40mm
; support material extrusion width = 0.35mm
; first layer extrusion width = 0.42mm

M73 P0 R85
M73 Q0 S86
M201 X1000 Y1000 Z200 E5000 ; sets maximum accelerations, mm/sec^2
M203 X200 Y200 Z12 E120 ; sets maximum feedrates, mm / sec
M204 P1250 R1250 T1250 ; sets acceleration (P, T) and retract acceleration (R), mm/sec^2
M205 X8.00 Y8.00 Z0.40 E4.50 ; sets the jerk limits, mm/sec
M205 S0 T0 ; sets the minimum extruding and travel feed rate, mm/sec
M107
;TYPE:Custom
M862.3 P "MK3S" ; printer model check
M862.1 P0.4 ; nozzle diameter check
M115 U3.11.0 ; tell printer latest fw version
G90 ; use absolute coordinates
M83 ; extruder relative mode
M104 S215 ; set extruder temp
M140 S60 ; set bed temp
M190 S60 ; wait for bed temp
M109 S215 ; wait for extruder temp
G28 W ; home all without mesh bed level
G80 ; mesh bed leveling

G1 Z0.2 F720
G1 Y-3 F1000 ; go outside print area
G92 E0
G1 X60 E9 F1000 ; intro line
G1 X100 E12.5 F1000 ; intro line

G92 E0
M221 S95

; Don't change E values below. Excessive value can damage the printer.

G21 ; set units to millimeters
G90 ; use absolute coordinates
M83 ; use relative distances for extrusion
M900 K0.05 ; Filament gcode LA 1.5
M900 K30 ; Filament gcode LA 1.0
M107
;LAYER_CHANGE
;Z:0.35
;HEIGHT:0.35
;BEFORE_LAYER_CHANGE
G92 E0.0
;0.35


G1 E-.8 F2100
G1 Z.4 F1200
;AFTER_LAYER_CHANGE
;0.35
G1 X79.771 Y75.598 F9000
G1 Z.35 F1200
G1 E.8 F2100
;TYPE:Skirt/Brim
;WIDTH:0.42
G1 F1800
G1 X80.834 Y74.607 E.07293
G1 X82.068 Y74.307 E.06374
G1 X167.932 Y74.307 E4.30917
G1 X169.331 Y74.699 E.07293
G1 X170.322 Y75.763 E.07293
G1 X170.622 Y76.997 E.06374
G1 X170.622 Y133.003 E2.81074
G1 X170.229 Y134.402 E.07293
G1 X169.166 Y135.393 E.07293
G1 X167.932 Y135.693 E.06374
G1 X82.068 Y135.693 E4.30917
G1 X80.669 Y135.301 E.07293
G1 X79.678 Y134.237 E.07293
G1 X79.378 Y133.003 E.06374
G1 X79.378 Y76.997 E2.81074
G1 X79.755 Y75.655 E.06992
G1 X80.097 Y75.759 F9000
G1 F1800
G1 X80.115 Y75.7 E.00309
G1 X81.158 Y74.835 E.068
G1 X82.068 Y74.652 E.04658
G1 X167.932 Y74.652 E4.30917
G1 X169.229 Y75.043 E.068
G1 X170.093 Y76.087 E.068
G1 X170.277 Y76.997 E.04658
G1 X170.277 Y133.003 E2.81074
G1 X169.885 Y134.3 E.068
G1 X168.842 Y135.165 E.068
G1 X167.932 Y135.348 E.04658
G1 X82.068 Y135.348 E4.30917
G1 X80.771 Y134.957 E.068
G1 X79.907 Y133.913 E.068
G1 X79.723 Y133.003 E.04658
G1 X79.723 Y76.997 E2.81074
G1 X80.079 Y75.816 E.06189
;WIPE_START
G1 F7200
G1 X80.115 Y75.7 E-.03371
G1 X81.158 Y74.835 E-.37544
G1 X82.068 Y74.652 E-.25715
G1 X82.406 Y74.652 E-.0937
;WIPE_END
G1 E-.04 F2100
G1 Z.75 F1200
G1 X88.165 Y116.948 F9000
G1 Z.35 F1200
G1 E.8 F2100
;TYPE:Support material
G1 F1800
G1 X88.552 Y117.335 E.02744
G1 X120.448 Y117.335 E1.60077
G1 X120.835 Y116.948 E.02744
G1 X120.835 Y113.21 E.18763
G1 X126.932 Y113.21 E.30599
G1 X126.932 Y133.003 E.99336
G1 X82.068 Y133.003 E2.25155
G1 X82.068 Y113.21 E.99336
G1 X88.165 Y113.21 E.30599
G1 X88.165 Y116.897 E.18503
;WIPE_START
G1 F7200
G1 X88.165 Y114.154 E-.76
;WIPE_END
G1 E-.04 F2100
G1 Z.75 F1200
G1 X126.343 Y132.848 F9000
G1 Z.35 F1200
G1 E.8 F2100
G1 F1800
G1 X126.343 Y113.52 E.96999
G1 X125.96 Y113.52 E.01923
G1 X125.96 Y132.693 E.9622
G1 X125.577 Y132.693 E.01923
G1 X125.577 Y113.52 E.9622
G1 X125.193 Y113.52 E.01923
G1 X125.193 Y132.693 E.9622
G1 X124.81 Y132.693 E.01923
G1 X124.81 Y113.52 E.9622
G1 X124.427 Y113.52 E.01923
G1 X124.427 Y132.693 E.9622
G1 X124.044 Y132.693 E.01923
G1 X124.044 Y113.52 E.9622
G1 X123.66 Y113.52 E.01923
G1 X123.66 Y132.693 E.9622
G1 X123.277 Y132.693 E.01923
M73 Q0 S85
G1 X123.277 Y113.52 E.9622
G1 X122.894 Y113.52 E.01923
G1 X122.894 Y132.693 E.9622
G1 X122.511 Y132.693 E.01923
G1 X122.511 Y113.52 E.9622
G1 X122.128 Y113.52 E.01923
G1 X122.128 Y132.693 E.9622
G1 X121.744 Y132.693 E.01923
G1 X121.744 Y113.52 E.9622
G1 X121.361 Y113.52 E.01923
G1 X121.361 Y132.693 E.9622
G1 X120.978 Y132.693 E.01923
G1 X120.978 Y117.244 E.7753
G1 X120.595 Y117.628 E.0272
G1 X120.595 Y132.693 E.75607
G1 X120.212 Y132.693 E.01923
G1 X120.212 Y117.645 E.75517
G1 X119.828 Y117.645 E.01923
G1 X119.828 Y132.693 E.75517
G1 X119.445 Y132.693 E.01923
G1 X119.445 Y117.645 E.75517
G1 X119.062 Y117.645 E.01923
G1 X119.062 Y132.693 E.75517
G1 X118.679 Y132.693 E.01923
G1 X118.679 Y117.645 E.75517
G1 X118.296 Y117.645 E.01923
G1 X118.296 Y132.693 E.75517
G1 X117.912 Y132.693 E.01923
G1 X117.912 Y117.645 E.75517
G1 X117.529 Y117.645 E.01923
G1 X117.529 Y132.693 E.75517
G1 X117.146 Y132.693 E.01923
G1 X117.146 Y117.645 E.75517
G1 X116.763 Y117.645 E.01923
G1 X116.763 Y132.693 E.75517
G1 X116.38 Y132.693 E.01923
G1 X116.38 Y117.645 E.75517
G1 X115.996 Y117.645 E.01923
G1 X115.996 Y132.693 E.75517
G1 X115.613 Y132.693 E.01923
G1 X115.613 Y117.645 E.75517
G1 X115.23 Y117.645 E.01923
G1 X115.23 Y132.693 E.75517
G1 X114.847 Y132.693 E.01923
M73 P1 R85
M73 Q1 S85
G1 X114.847 Y117.645 E.75517
G1 X114.463 Y117.645 E.01923
G1 X114.463 Y132.693 E.75517
G1 X114.08 Y132.693 E.01923
G1 X114.08 Y117.645 E.75517
G1 X113.697 Y117.645 E.01923
G1 X113.697 Y132.693 E.75517
G1 X113.314 Y132.693 E.01923
M73 P1 R84
G1 X113.314 Y117.645 E.75517
G1 X112.931 Y117.645 E.01923
G1 X112.931 Y132.693 E.75517
G1 X112.547 Y132.693 E.01923
G1 X112.547 Y117.645 E.75517
G1 X112.164 Y117.645 E.01923
G1 X112.164 Y132.693 E.75517
G1 X111.781 Y132.693 E.01923
G1 X111.781 Y117.645 E.75517
G1 X111.398 Y117.645 E.01923
G1 X111.398 Y132.693 E.75517
G1 X111.015 Y132.693 E.01923
G1 X111.015 Y117.645 E.75517
G1 X110.631 Y117.645 E.01923
G1 X110.631 Y132.693 E.75517
G1 X110.248 Y132.693 E.01923
G1 X110.248 Y117.645 E.75517
G1 X109.865 Y117.645 E.01923
G1 X109.865 Y132.693 E.75517
G1 X109.482 Y132.693 E.01923
G1 X109.482 Y117.645 E.75517
G1 X109.099 Y117.645 E.01923
G1 X109.099 Y132.693 E.75517
G1 X108.715 Y132.693 E.01923
G1 X108.715 Y117.645 E.75517
G1 X108.332 Y117.645 E.01923
G1 X108.332 Y132.693 E.75517
G1 X107.949 Y132.693 E.01923
G1 X107.949 Y117.645 E.75517
G1 X107.566 Y117.645 E.01923
G1 X107.566 Y132.693 E.75517
G1 X107.182 Y132.693 E.01923
G1 X107.182 Y117.645 E.75517
G1 X106.799 Y117.645 E.01923
G1 X106.799 Y132.693 E.75517
G1 X106.416 Y132.693 E.01923
G1 X106.416 Y117.645 E.75517
G1 X106.033 Y117.645 E.01923
G1 X106.033 Y132.693 E.75517
G1 X105.65 Y132.693 E.01923
G1 X105.65 Y117.645 E.75517
G1 X105.266 Y117.645 E.01923
G1 X105.266 Y132.693 E.75517
G1 X104.883 Y132.693 E.01923
G1 X104.883 Y117.645 E.75517
G1 X104.5 Y117.645 E.01923
G1 X104.5 Y132.693 E.75517
G1 X104.117 Y132.693 E.01923
G1 X104.117 Y117.645 E.75517
G1 X103.734 Y117.645 E.01923
G1 X103.734 Y132.693 E.75517
G1 X103.35 Y132.693 E.01923
G1 X103.35 Y117.645 E.75517
G1 X102.967 Y117.645 E.01923
G1 X102.967 Y132.693 E.75517
G1 X102.584 Y132.693 E.01923
G1 X102.584 Y117.645 E.75517
G1 X102.201 Y117.645 E.01923
G1 X102.201 Y132.693 E.75517
G1 X101.818 Y132.693 E.01923
G1 X101.818 Y117.645 E.75517
G1 X101.434 Y117.645 E.01923
G1 X101.434 Y132.693 E.75517
G1 X101.051 Y132.693 E.01923
G1 X101.051 Y117.645 E.75517
G1 X100.668 Y117.645 E.01923
G1 X100.668 Y132.693 E.75517
G1 X100.285 Y132.693 E.01923
G1 X100.285 Y117.645 E.75517
G1 X99.901 Y117.645 E.01923
G1 X99.901 Y132.693 E.75517
G1 X99.518 Y132.693 E.01923
G1 X99.518 Y117.645 E.75517
G1 X99.135 Y117.645 E.01923
G1 X99.135 Y132.693 E.75517
G1 X98.752 Y132.693 E.01923
G1 X98.752 Y117.645 E.75517
G1 X98.369 Y117.645 E.01923
G1 X98.369 Y132.693 E.75517
G1 X97.985 Y132.693 E.01923
G1 X97.985 Y117.645 E.75517
G1 X97.602 Y117.645 E.01923
G1 X97.602 Y132.693 E.75517
G1 X97.219 Y132.693 E.01923
G1 X97.219 Y117.645 E.75517
G1 X96.836 Y117.645 E.01923
G1 X96.836 Y132.693 E.75517
G1 X96.453 Y132.693 E.01923
G1 X96.453 Y117.645 E.75517
G1 X96.069 Y117.645 E.01923
G1 X96.069 Y132.693 E.75517
G1 X95.686 Y132.693 E.01923
G1 X95.686 Y117.645 E.75517
G1 X95.303 Y117.645 E.01923
G1 X95.303 Y132.693 E.75517
G1 X94.92 Y132.693 E.01923
G1 X94.92 Y117.645 E.75517
G1 X94.537 Y117.645 E.01923
G1 X94.537 Y132.693 E.75517
G1 X94.153 Y132.693 E.01923
G1 X94.153 Y117.645 E.75517
G1 X93.77 Y117.645 E.01923
G1 X93.77 Y132.693 E.75517
G1 X93.387 Y132.693 E.01923
G1 X93.387 Y117.645 E.75517
G1 X93.004 Y117.645 E.01923
G1 X93.004 Y132.693 E.75517
G1 X92.62 Y132.693 E.01923
G1 X92.62 Y117.645 E.75517
G1 X92.237 Y117.645 E.01923
G1 X92.237 Y132.693 E.75517
G1 X91.854 Y132.693 E.01923
G1 X91.854 Y117.645 E.75517
G1 X91.471 Y117.645 E.01923
G1 X91.471 Y132.693 E.75517
G1 X91.088 Y132.693 E.01923
G1 X91.088 Y117.645 E.75517
G1 X90.704 Y117.645 E.01923
G1 X90.704 Y132.693 E.75517
G1 X90.321 Y132.693 E.01923
G1 X90.321 Y117.645 E.75517
G1 X89.938 Y117.645 E.01923
G1 X89.938 Y132.693 E.75517
G1 X89.555 Y132.693 E.01923
G1 X89.555 Y117.645 E.75517
G1 X89.172 Y117.645 E.01923
G1 X89.172 Y132.693 E.75517
G1 X88.788 Y132.693 E.01923
G1 X88.788 Y117.645 E.75517
G1 X88.423 Y117.645 E.01833
G1 X88.405 Y117.628 E.00127
G1 X88.405 Y132.693 E.75607
G1 X88.022 Y132.693 E.01923
G1 X88.022 Y117.244 E.7753
G1 X87.855 Y117.077 E.01188
G1 X87.855 Y113.52 E.1785
G1 X87.639 Y113.52 E.01083
G1 X87.639 Y132.693 E.9622
G1 X87.256 Y132.693 E.01923
G1 X87.256 Y113.52 E.9622
G1 X86.872 Y113.52 E.01923
G1 X86.872 Y132.693 E.9622
G1 X86.489 Y132.693 E.01923
G1 X86.489 Y113.52 E.9622
G1 X86.106 Y113.52 E.01923
G1 X86.106 Y132.693 E.9622
G1 X85.723 Y132.693 E.01923
G1 X85.723 Y113.52 E.9622
G1 X85.339 Y113.52 E.01923
G1 X85.339 Y132.693 E.9622
G1 X84.956 Y132.693 E.01923
G1 X84.956 Y113.52 E.9622
G1 X84.573 Y113.52 E.01923
G1 X84.573 Y132.693 E.9622
G1 X84.19 Y132.693 E.01923
G1 X84.19 Y113.52 E.9622
G1 X83.807 Y113.52 E.01923
G1 X83.807 Y132.693 E.9622
G1 X83.423 Y132.693 E.01923
G1 X83.423 Y113.52 E.9622
G1 X83.04 Y113.52 E.01923
M73 Q1 S84
G1 X83.04 Y132.693 E.9622
G1 X82.657 Y132.693 E.01923
G1 X82.657 Y113.365 E.96999
;WIPE_START
G1 F7200
G1 X82.657 Y116.108 E-.76
;WIPE_END
G1 E-.04 F2100
G1 Z.75 F1200
G1 X126.932 Y96.79 F9000
G1 Z.35 F1200
G1 E.8 F2100
G1 F1800
G1 X120.835 Y96.79 E.30599
G1 X120.835 Y93.052 E.18763
G1 X120.448 Y92.665 E.02744
G1 X88.552 Y92.665 E1.60077
G1 X88.165 Y93.052 E.02744
G1 X88.165 Y96.79 E.18763
G1 X82.068 Y96.79 E.30599
G1 X82.068 Y76.997 E.99336
G1 X126.932 Y76.997 E2.25155
M73 P2 R84
G1 X126.932 Y96.739 E.99076
M73 Q2 S84
G1 X126.343 Y96.635 F9000
G1 F1800
G1 X126.343 Y77.307 E.96999
G1 X125.96 Y77.307 E.01923
G1 X125.96 Y96.48 E.9622
G1 X125.577 Y96.48 E.01923
G1 X125.577 Y77.307 E.9622
G1 X125.193 Y77.307 E.01923
G1 X125.193 Y96.48 E.9622
G1 X124.81 Y96.48 E.01923
G1 X124.81 Y77.307 E.9622
G1 X124.427 Y77.307 E.01923
G1 X124.427 Y96.48 E.9622
G1 X124.044 Y96.48 E.01923
G1 X124.044 Y77.307 E.9622
G1 X123.661 Y77.307 E.01923
G1 X123.661 Y96.48 E.9622
G1 X123.277 Y96.48 E.01923
G1 X123.277 Y77.307 E.9622
G1 X122.894 Y77.307 E.01923
G1 X122.894 Y96.48 E.9622
G1 X122.511 Y96.48 E.01923
G1 X122.511 Y77.307 E.9622
G1 X122.128 Y77.307 E.01923
G1 X122.128 Y96.48 E.9622
G1 X121.744 Y96.48 E.01923
M73 P2 R83
G1 X121.744 Y77.307 E.9622
G1 X121.361 Y77.307 E.01923
G1 X121.361 Y96.48 E.9622
G1 X121.145 Y96.48 E.01083
G1 X121.145 Y92.923 E.1785
G1 X120.978 Y92.756 E.01188
G1 X120.978 Y77.307 E.7753
G1 X120.595 Y77.307 E.01923
G1 X120.595 Y92.372 E.75607
G1 X120.577 Y92.355 E.00127
G1 X120.212 Y92.355 E.01833
G1 X120.212 Y77.307 E.75517
G1 X119.828 Y77.307 E.01923
G1 X119.828 Y92.355 E.75517
G1 X119.445 Y92.355 E.01923
G1 X119.445 Y77.307 E.75517
G1 X119.062 Y77.307 E.01923
G1 X119.062 Y92.355 E.75517
G1 X118.679 Y92.355 E.01923
G1 X118.679 Y77.307 E.75517
G1 X118.296 Y77.307 E.01923
G1 X118.296 Y92.355 E.75517
G1 X117.912 Y92.355 E.01923
G1 X117.912 Y77.307 E.75517
G1 X117.529 Y77.307 E.01923
G1 X117.529 Y92.355 E.75517
G1 X117.146 Y92.355 E.01923
G1 X117.146 Y77.307 E.75517
G1 X116.763 Y77.307 E.01923
G1 X116.763 Y92.355 E.75517
G1 X116.38 Y92.355 E.01923
G1 X116.38 Y77.307 E.75517
G1 X115.996 Y77.307 E.01923
G1 X115.996 Y92.355 E.75517
G1 X115.613 Y92.355 E.01923
G1 X115.613 Y77.307 E.75517
G1 X115.23 Y77.307 E.01923
G1 X115.23 Y92.355 E.75517
G1 X114.847 Y92.355 E.01923
G1 X114.847 Y77.307 E.75517
G1 X114.463 Y77.307 E.01923
G1 X114.463 Y92.355 E.75517
G1 X114.08 Y92.355 E.01923
G1 X114.08 Y77.307 E.75517
G1 X113.697 Y77.307 E.01923
G1 X113.697 Y92.355 E.75517
G1 X113.314 Y92.355 E.01923
G1 X113.314 Y77.307 E.75517
G1 X112.931 Y77.307 E.01923
G1 X112.931 Y92.355 E.75517
G1 X112.547 Y92.355 E.01923
G1 X112.547 Y77.307 E.75517
G1 X112.164 Y77.307 E.01923
G1 X112.164 Y92.355 E.75517
G1 X111.781 Y92.355 E.01923
G1 X111.781 Y77.307 E.75517
G1 X111.398 Y77.307 E.01923
G1 X111.398 Y92.355 E.75517
G1 X111.015 Y92.355 E.01923
G1 X111.015 Y77.307 E.75517
G1 X110.631 Y77.307 E.01923
G1 X110.631 Y92.355 E.75517
G1 X110.248 Y92.355 E.01923
G1 X110.248 Y77.307 E.75517
G1 X109.865 Y77.307 E.01923
G1 X109.865 Y92.355 E.75517
G1 X109.482 Y92.355 E.01923
G1 X109.482 Y77.307 E.75517
G1 X109.099 Y77.307 E.01923
G1 X109.099 Y92.355 E.75517
G1 X108.715 Y92.355 E.01923
G1 X108.715 Y77.307 E.75517
G1 X108.332 Y77.307 E.01923
G1 X108.332 Y92.355 E.75517
G1 X107.949 Y92.355 E.01923
G1 X107.949 Y77.307 E.75517
G1 X107.566 Y77.307 E.01923
G1 X107.566 Y92.355 E.75517
G1 X107.182 Y92.355 E.01923
G1 X107.182 Y77.307 E.75517
G1 X106.799 Y77.307 E.01923
G1 X106.799 Y92.355 E.75517
G1 X106.416 Y92.355 E.01923
G1 X106.416 Y77.307 E.75517
G1 X106.033 Y77.307 E.01923
G1 X106.033 Y92.355 E.75517
G1 X105.65 Y92.355 E.01923
G1 X105.65 Y77.307 E.75517
G1 X105.266 Y77.307 E.01923
G1 X105.266 Y92.355 E.75517
G1 X104.883 Y92.355 E.01923
G1 X104.883 Y77.307 E.75517
G1 X104.5 Y77.307 E.01923
G1 X104.5 Y92.355 E.75517
G1 X104.117 Y92.355 E.01923
G1 X104.117 Y77.307 E.75517
G1 X103.734 Y77.307 E.01923
G1 X103.734 Y92.355 E.75517
G1 X103.35 Y92.355 E.01923
G1 X103.35 Y77.307 E.75517
G1 X102.967 Y77.307 E.01923
G1 X102.967 Y92.355 E.75517
G1 X102.584 Y92.355 E.01923
G1 X102.584 Y77.307 E.75517
G1 X102.201 Y77.307 E.01923
G1 X102.201 Y92.355 E.75517
G1 X101.818 Y92.355 E.01923
G1 X101.818 Y77.307 E.75517
G1 X101.434 Y77.307 E.01923
G1 X101.434 Y92.355 E.75517
G1 X101.051 Y92.355 E.01923
G1 X101.051 Y77.307 E.75517
G1 X100.668 Y77.307 E.01923
G1 X100.668 Y92.355 E.75517
G1 X100.285 Y92.355 E.01923
G1 X100.285 Y77.307 E.75517
G1 X99.901 Y77.307 E.01923
G1 X99.901 Y92.355 E.75517
G1 X99.518 Y92.355 E.01923
G1 X99.518 Y77.307 E.75517
G1 X99.135 Y77.307 E.01923
G1 X99.135 Y92.355 E.75517
G1 X98.752 Y92.355 E.01923
G1 X98.752 Y77.307 E.75517
G1 X98.369 Y77.307 E.01923
G1 X98.369 Y92.355 E.75517
G1 X97.985 Y92.355 E.01923
G1 X97.985 Y77.307 E.75517
G1 X97.602 Y77.307 E.01923
G1 X97.602 Y92.355 E.75517
G1 X97.219 Y92.355 E.01923
G1 X97.219 Y77.307 E.75517
G1 X96.836 Y77.307 E.01923
G1 X96.836 Y92.355 E.75517
G1 X96.453 Y92.355 E.01923
G1 X96.453 Y77.307 E.75517
G1 X96.069 Y77.307 E.01923
G1 X96.069 Y92.355 E.75517
G1 X95.686 Y92.355 E.01923
G1 X95.686 Y77.307 E.75517
G1 X95.303 Y77.307 E.01923
G1 X95.303 Y92.355 E.75517
G1 X94.92 Y92.355 E.01923
G1 X94.92 Y77.307 E.75517
G1 X94.537 Y77.307 E.01923
G1 X94.537 Y92.355 E.75517
G1 X94.153 Y92.355 E.01923
G1 X94.153 Y77.307 E.75517
G1 X93.77 Y77.307 E.01923
G1 X93.77 Y92.355 E.75517
G1 X93.387 Y92.355 E.01923
G1 X93.387 Y77.307 E.75517
G1 X93.004 Y77.307 E.01923
M73 P3 R83
G1 X93.004 Y92.355 E.75517
G1 X92.62 Y92.355 E.01923
M73 Q3 S84
G1 X92.62 Y77.307 E.75517
G1 X92.237 Y77.307 E.01923
G1 X92.237 Y92.355 E.75517
G1 X91.854 Y92.355 E.01923
G1 X91.854 Y77.307 E.75517
G1 X91.471 Y77.307 E.01923
G1 X91.471 Y92.355 E.75517
G1 X91.088 Y92.355 E.01923
G1 X91.088 Y77.307 E.75517
G1 X90.704 Y77.307 E.01923
M73 Q3 S83
G1 X90.704 Y92.355 E.75517
G1 X90.321 Y92.355 E.01923
