; generated by PrusaSlicer 2.4.1+arm64 on 2023-03-08 at 00:33:00 UTC


;
;
; 

; external perimeters extrusion width = 0.45mm
; perimeters extrusion width = 0.45mm
; infill extrusion width = 0.45mm
; solid infill extrusion width = 0.45mm
; top infill extrusion width = 0.40mm
; support material extrusion width = 0.35mm
; first layer extrusion width = 0.42mm

; external perimeters extrusion width = 0.45mm
; perimeters extrusion width = 0.45mm
; infill extrusion width = 0.45mm
; solid infill extrusion width = 0.45mm
; top infill extrusion width = 0.40mm
; support material extrusion width = 0.35mm
; first layer extrusion width = 0.42mm

M73 P0 R90
M73 Q0 S90
M201 X1000 Y1000 Z200 E5000 ; sets maximum accelerations, mm/sec^2
M203 X200 Y200 Z12 E120 ; sets maximum feedrates, mm / sec
M204 P1250 R1250 T1250 ; sets acceleration (P, T) and retract acceleration (R), mm/sec^2
M205 X8.00 Y8.00 Z0.40 E4.50 ; sets the jerk limits, mm/sec
M205 S0 T0 ; sets the minimum extruding and travel feed rate, mm/sec
M107
;TYPE:Custom
M862.3 P "MK3S" ; printer model check
M862.1 P0.4 ; nozzle diameter check
M115 U3.11.0 ; tell printer latest fw version
G90 ; use absolute coordinates
M83 ; extruder relative mode
M104 S210 ; set extruder temp
M140 S60 ; set bed temp
M190 S60 ; wait for bed temp
M109 S210 ; wait for extruder temp
G28 W ; home all without mesh bed level
G80 ; mesh bed leveling

G1 Z0.2 F720
G1 Y-3 F1000 ; go outside print area
G92 E0
G1 X60 E9 F1000 ; intro line
G1 X100 E12.5 F1000 ; intro line

G92 E0
M221 S95

; Don't change E values below. Excessive value can damage the printer.

G21 ; set units to millimeters
G90 ; use absolute coordinates
M83 ; use relative distances for extrusion
; Filament gcode
M107
;LAYER_CHANGE
;Z:0.35
;HEIGHT:0.35
;BEFORE_LAYER_CHANGE
G92 E0.0
;0.35


M73 P0 R89
G1 Z.35 F1200
;AFTER_LAYER_CHANGE
;0.35
G1 E-5 F2700
G1 Z.55 F1200
G1 X79.771 Y75.598 F9000
G1 Z.35 F1200
G1 E5 F2700
;TYPE:Skirt/Brim
;WIDTH:0.42
G1 F1800
G1 X80.834 Y74.607 E.07293
G1 X82.068 Y74.307 E.06374
G1 X167.932 Y74.307 E4.30917
G1 X169.331 Y74.699 E.07293
G1 X170.322 Y75.763 E.07293
G1 X170.622 Y76.997 E.06374
G1 X170.622 Y133.003 E2.81074
G1 X170.229 Y134.402 E.07293
G1 X169.166 Y135.393 E.07293
G1 X167.932 Y135.693 E.06374
G1 X82.068 Y135.693 E4.30917
G1 X80.669 Y135.301 E.07293
G1 X79.678 Y134.237 E.07293
G1 X79.378 Y133.003 E.06374
G1 X79.378 Y76.997 E2.81074
G1 X79.755 Y75.655 E.06992
G1 X80.097 Y75.759 F9000
G1 F1800
G1 X80.115 Y75.7 E.00309
G1 X81.158 Y74.835 E.068
G1 X82.068 Y74.652 E.04658
G1 X167.932 Y74.652 E4.30917
G1 X169.229 Y75.043 E.068
G1 X170.093 Y76.087 E.068
G1 X170.277 Y76.997 E.04658
G1 X170.277 Y133.003 E2.81074
G1 X169.885 Y134.3 E.068
G1 X168.842 Y135.165 E.068
G1 X167.932 Y135.348 E.04658
G1 X82.068 Y135.348 E4.30917
G1 X80.771 Y134.957 E.068
G1 X79.907 Y133.913 E.068
G1 X79.723 Y133.003 E.04658
G1 X79.723 Y76.997 E2.81074
G1 X80.079 Y75.816 E.06189
;WIPE_START
G1 F7200
G1 X80.115 Y75.7 E-.04334
G1 X81.158 Y74.835 E-.4827
G1 X82.068 Y74.652 E-.33062
G1 X92.997 Y74.652 E-3.89333
;WIPE_END
G1 E-.25 F2700
G1 Z.55 F1200
G1 X88.39 Y116.855 F9000
G1 Z.35 F1200
G1 E5 F2700
;TYPE:Support material
G1 F1800
G1 X88.645 Y117.11 E.01809
G1 X120.355 Y117.11 E1.59141
G1 X120.61 Y116.855 E.01809
G1 X120.61 Y115.995 E.04315
G1 X126.932 Y115.995 E.31728
G1 X126.932 Y133.003 E.85356
G1 X82.068 Y133.003 E2.25155
G1 X82.068 Y115.995 E.85356
G1 X88.39 Y115.995 E.31728
G1 X88.39 Y116.803 E.04055
G1 X126.343 Y132.848 F9000
G1 F1800
G1 X126.343 Y116.306 E.83019
G1 X125.96 Y116.306 E.01923
G1 X125.96 Y132.693 E.8224
G1 X125.577 Y132.693 E.01923
G1 X125.577 Y116.306 E.8224
G1 X125.193 Y116.306 E.01923
G1 X125.193 Y132.693 E.8224
G1 X124.81 Y132.693 E.01923
G1 X124.81 Y116.306 E.8224
G1 X124.427 Y116.306 E.01923
G1 X124.427 Y132.693 E.8224
G1 X124.044 Y132.693 E.01923
G1 X124.044 Y116.306 E.8224
G1 X123.66 Y116.306 E.01923
G1 X123.66 Y132.693 E.8224
G1 X123.277 Y132.693 E.01923
G1 X123.277 Y116.306 E.8224
G1 X122.894 Y116.306 E.01923
G1 X122.894 Y132.693 E.8224
G1 X122.511 Y132.693 E.01923
G1 X122.511 Y116.306 E.8224
G1 X122.128 Y116.306 E.01923
G1 X122.128 Y132.693 E.8224
G1 X121.744 Y132.693 E.01923
G1 X121.744 Y116.306 E.8224
G1 X121.361 Y116.306 E.01923
G1 X121.361 Y132.693 E.8224
G1 X120.978 Y132.693 E.01923
G1 X120.978 Y116.306 E.8224
G1 X120.92 Y116.306 E.00289
G1 X120.92 Y116.984 E.03402
G1 X120.595 Y117.309 E.02311
G1 X120.595 Y132.693 E.77204
G1 X120.212 Y132.693 E.01923
G1 X120.212 Y117.42 E.76646
G1 X119.828 Y117.42 E.01923
G1 X119.828 Y132.693 E.76646
G1 X119.445 Y132.693 E.01923
G1 X119.445 Y117.42 E.76646
G1 X119.062 Y117.42 E.01923
G1 X119.062 Y132.693 E.76646
G1 X118.679 Y132.693 E.01923
G1 X118.679 Y117.42 E.76646
G1 X118.296 Y117.42 E.01923
G1 X118.296 Y132.693 E.76646
G1 X117.912 Y132.693 E.01923
G1 X117.912 Y117.42 E.76646
G1 X117.529 Y117.42 E.01923
M73 Q0 S89
G1 X117.529 Y132.693 E.76646
G1 X117.146 Y132.693 E.01923
G1 X117.146 Y117.42 E.76646
G1 X116.763 Y117.42 E.01923
G1 X116.763 Y132.693 E.76646
G1 X116.38 Y132.693 E.01923
G1 X116.38 Y117.42 E.76646
G1 X115.996 Y117.42 E.01923
G1 X115.996 Y132.693 E.76646
G1 X115.613 Y132.693 E.01923
G1 X115.613 Y117.42 E.76646
G1 X115.23 Y117.42 E.01923
G1 X115.23 Y132.693 E.76646
G1 X114.847 Y132.693 E.01923
G1 X114.847 Y117.42 E.76646
G1 X114.463 Y117.42 E.01923
G1 X114.463 Y132.693 E.76646
G1 X114.08 Y132.693 E.01923
G1 X114.08 Y117.42 E.76646
G1 X113.697 Y117.42 E.01923
G1 X113.697 Y132.693 E.76646
G1 X113.314 Y132.693 E.01923
G1 X113.314 Y117.42 E.76646
G1 X112.931 Y117.42 E.01923
G1 X112.931 Y132.693 E.76646
G1 X112.547 Y132.693 E.01923
G1 X112.547 Y117.42 E.76646
G1 X112.164 Y117.42 E.01923
M73 P1 R89
M73 Q1 S89
G1 X112.164 Y132.693 E.76646
G1 X111.781 Y132.693 E.01923
G1 X111.781 Y117.42 E.76646
G1 X111.398 Y117.42 E.01923
G1 X111.398 Y132.693 E.76646
G1 X111.015 Y132.693 E.01923
G1 X111.015 Y117.42 E.76646
G1 X110.631 Y117.42 E.01923
G1 X110.631 Y132.693 E.76646
G1 X110.248 Y132.693 E.01923
G1 X110.248 Y117.42 E.76646
G1 X109.865 Y117.42 E.01923
G1 X109.865 Y132.693 E.76646
G1 X109.482 Y132.693 E.01923
G1 X109.482 Y117.42 E.76646
G1 X109.099 Y117.42 E.01923
G1 X109.099 Y132.693 E.76646
G1 X108.715 Y132.693 E.01923
G1 X108.715 Y117.42 E.76646
G1 X108.332 Y117.42 E.01923
G1 X108.332 Y132.693 E.76646
G1 X107.949 Y132.693 E.01923
G1 X107.949 Y117.42 E.76646
G1 X107.566 Y117.42 E.01923
M73 P1 R88
G1 X107.566 Y132.693 E.76646
G1 X107.182 Y132.693 E.01923
G1 X107.182 Y117.42 E.76646
G1 X106.799 Y117.42 E.01923
G1 X106.799 Y132.693 E.76646
G1 X106.416 Y132.693 E.01923
G1 X106.416 Y117.42 E.76646
G1 X106.033 Y117.42 E.01923
G1 X106.033 Y132.693 E.76646
G1 X105.65 Y132.693 E.01923
G1 X105.65 Y117.42 E.76646
G1 X105.266 Y117.42 E.01923
G1 X105.266 Y132.693 E.76646
G1 X104.883 Y132.693 E.01923
G1 X104.883 Y117.42 E.76646
G1 X104.5 Y117.42 E.01923
G1 X104.5 Y132.693 E.76646
G1 X104.117 Y132.693 E.01923
G1 X104.117 Y117.42 E.76646
G1 X103.734 Y117.42 E.01923
G1 X103.734 Y132.693 E.76646
G1 X103.35 Y132.693 E.01923
G1 X103.35 Y117.42 E.76646
G1 X102.967 Y117.42 E.01923
G1 X102.967 Y132.693 E.76646
G1 X102.584 Y132.693 E.01923
G1 X102.584 Y117.42 E.76646
G1 X102.201 Y117.42 E.01923
G1 X102.201 Y132.693 E.76646
G1 X101.818 Y132.693 E.01923
G1 X101.818 Y117.42 E.76646
G1 X101.434 Y117.42 E.01923
G1 X101.434 Y132.693 E.76646
G1 X101.051 Y132.693 E.01923
G1 X101.051 Y117.42 E.76646
G1 X100.668 Y117.42 E.01923
G1 X100.668 Y132.693 E.76646
G1 X100.285 Y132.693 E.01923
G1 X100.285 Y117.42 E.76646
G1 X99.901 Y117.42 E.01923
G1 X99.901 Y132.693 E.76646
G1 X99.518 Y132.693 E.01923
G1 X99.518 Y117.42 E.76646
G1 X99.135 Y117.42 E.01923
G1 X99.135 Y132.693 E.76646
G1 X98.752 Y132.693 E.01923
G1 X98.752 Y117.42 E.76646
G1 X98.369 Y117.42 E.01923
G1 X98.369 Y132.693 E.76646
G1 X97.985 Y132.693 E.01923
G1 X97.985 Y117.42 E.76646
G1 X97.602 Y117.42 E.01923
G1 X97.602 Y132.693 E.76646
G1 X97.219 Y132.693 E.01923
G1 X97.219 Y117.42 E.76646
G1 X96.836 Y117.42 E.01923
G1 X96.836 Y132.693 E.76646
G1 X96.453 Y132.693 E.01923
G1 X96.453 Y117.42 E.76646
G1 X96.069 Y117.42 E.01923
G1 X96.069 Y132.693 E.76646
G1 X95.686 Y132.693 E.01923
G1 X95.686 Y117.42 E.76646
G1 X95.303 Y117.42 E.01923
G1 X95.303 Y132.693 E.76646
G1 X94.92 Y132.693 E.01923
G1 X94.92 Y117.42 E.76646
G1 X94.537 Y117.42 E.01923
G1 X94.537 Y132.693 E.76646
G1 X94.153 Y132.693 E.01923
G1 X94.153 Y117.42 E.76646
G1 X93.77 Y117.42 E.01923
G1 X93.77 Y132.693 E.76646
G1 X93.387 Y132.693 E.01923
G1 X93.387 Y117.42 E.76646
G1 X93.004 Y117.42 E.01923
G1 X93.004 Y132.693 E.76646
G1 X92.62 Y132.693 E.01923
G1 X92.62 Y117.42 E.76646
G1 X92.237 Y117.42 E.01923
G1 X92.237 Y132.693 E.76646
G1 X91.854 Y132.693 E.01923
G1 X91.854 Y117.42 E.76646
G1 X91.471 Y117.42 E.01923
G1 X91.471 Y132.693 E.76646
G1 X91.088 Y132.693 E.01923
G1 X91.088 Y117.42 E.76646
G1 X90.704 Y117.42 E.01923
G1 X90.704 Y132.693 E.76646
G1 X90.321 Y132.693 E.01923
G1 X90.321 Y117.42 E.76646
G1 X89.938 Y117.42 E.01923
G1 X89.938 Y132.693 E.76646
G1 X89.555 Y132.693 E.01923
G1 X89.555 Y117.42 E.76646
G1 X89.172 Y117.42 E.01923
G1 X89.172 Y132.693 E.76646
G1 X88.788 Y132.693 E.01923
G1 X88.788 Y117.42 E.76646
G1 X88.516 Y117.42 E.01366
G1 X88.405 Y117.309 E.00788
G1 X88.405 Y132.693 E.77204
G1 X88.022 Y132.693 E.01923
G1 X88.022 Y116.306 E.8224
G1 X87.639 Y116.306 E.01923
G1 X87.639 Y132.693 E.8224
G1 X87.256 Y132.693 E.01923
G1 X87.256 Y116.306 E.8224
G1 X86.872 Y116.306 E.01923
G1 X86.872 Y132.693 E.8224
G1 X86.489 Y132.693 E.01923
G1 X86.489 Y116.306 E.8224
G1 X86.106 Y116.306 E.01923
G1 X86.106 Y132.693 E.8224
G1 X85.723 Y132.693 E.01923
G1 X85.723 Y116.306 E.8224
G1 X85.339 Y116.306 E.01923
G1 X85.339 Y132.693 E.8224
G1 X84.956 Y132.693 E.01923
G1 X84.956 Y116.306 E.8224
G1 X84.573 Y116.306 E.01923
G1 X84.573 Y132.693 E.8224
G1 X84.19 Y132.693 E.01923
G1 X84.19 Y116.306 E.8224
G1 X83.807 Y116.306 E.01923
G1 X83.807 Y132.693 E.8224
G1 X83.423 Y132.693 E.01923
G1 X83.423 Y116.306 E.8224
G1 X83.04 Y116.306 E.01923
G1 X83.04 Y132.693 E.8224
G1 X82.657 Y132.693 E.01923
G1 X82.657 Y116.151 E.83019
;WIPE_START
G1 F7200
G1 X82.657 Y129.484 E-4.75
;WIPE_END
G1 E-.25 F2700
G1 Z.55 F1200
G1 X126.932 Y94.005 F9000
G1 Z.35 F1200
G1 E5 F2700
G1 F1800
G1 X120.61 Y94.005 E.31728
G1 X120.61 Y93.145 E.04315
G1 X120.355 Y92.89 E.01809
G1 X88.645 Y92.89 E1.59141
G1 X88.39 Y93.145 E.01809
G1 X88.39 Y94.005 E.04315
G1 X82.068 Y94.005 E.31728
G1 X82.068 Y76.997 E.85356
G1 X126.932 Y76.997 E2.25155
G1 X126.932 Y93.953 E.85096
G1 X126.343 Y93.849 F9000
G1 F1800
G1 X126.343 Y77.307 E.83019
G1 X125.96 Y77.307 E.01923
G1 X125.96 Y93.694 E.8224
G1 X125.577 Y93.694 E.01923
G1 X125.577 Y77.307 E.8224
G1 X125.193 Y77.307 E.01923
G1 X125.193 Y93.694 E.8224
G1 X124.81 Y93.694 E.01923
G1 X124.81 Y77.307 E.8224
G1 X124.427 Y77.307 E.01923
G1 X124.427 Y93.694 E.8224
M73 Q1 S88
G1 X124.044 Y93.694 E.01923
G1 X124.044 Y77.307 E.8224
G1 X123.661 Y77.307 E.01923
G1 X123.661 Y93.694 E.8224
G1 X123.277 Y93.694 E.01923
G1 X123.277 Y77.307 E.8224
G1 X122.894 Y77.307 E.01923
M73 P2 R88
M73 Q2 S88
G1 X122.894 Y93.694 E.8224
G1 X122.511 Y93.694 E.01923
G1 X122.511 Y77.307 E.8224
G1 X122.128 Y77.307 E.01923
G1 X122.128 Y93.694 E.8224
G1 X121.744 Y93.694 E.01923
G1 X121.744 Y77.307 E.8224
G1 X121.361 Y77.307 E.01923
G1 X121.361 Y93.694 E.8224
G1 X120.978 Y93.694 E.01923
G1 X120.978 Y77.307 E.8224
G1 X120.595 Y77.307 E.01923
G1 X120.595 Y92.691 E.77204
G1 X120.484 Y92.58 E.00788
G1 X120.212 Y92.58 E.01366
G1 X120.212 Y77.307 E.76646
G1 X119.828 Y77.307 E.01923
G1 X119.828 Y92.58 E.76646
G1 X119.445 Y92.58 E.01923
G1 X119.445 Y77.307 E.76646
G1 X119.062 Y77.307 E.01923
G1 X119.062 Y92.58 E.76646
G1 X118.679 Y92.58 E.01923
G1 X118.679 Y77.307 E.76646
G1 X118.296 Y77.307 E.01923
G1 X118.296 Y92.58 E.76646
G1 X117.912 Y92.58 E.01923
G1 X117.912 Y77.307 E.76646
G1 X117.529 Y77.307 E.01923
G1 X117.529 Y92.58 E.76646
G1 X117.146 Y92.58 E.01923
G1 X117.146 Y77.307 E.76646
G1 X116.763 Y77.307 E.01923
G1 X116.763 Y92.58 E.76646
G1 X116.38 Y92.58 E.01923
G1 X116.38 Y77.307 E.76646
G1 X115.996 Y77.307 E.01923
G1 X115.996 Y92.58 E.76646
G1 X115.613 Y92.58 E.01923
G1 X115.613 Y77.307 E.76646
G1 X115.23 Y77.307 E.01923
G1 X115.23 Y92.58 E.76646
G1 X114.847 Y92.58 E.01923
G1 X114.847 Y77.307 E.76646
G1 X114.463 Y77.307 E.01923
M73 P2 R87
G1 X114.463 Y92.58 E.76646
G1 X114.08 Y92.58 E.01923
G1 X114.08 Y77.307 E.76646
G1 X113.697 Y77.307 E.01923
G1 X113.697 Y92.58 E.76646
G1 X113.314 Y92.58 E.01923
G1 X113.314 Y77.307 E.76646
G1 X112.931 Y77.307 E.01923
G1 X112.931 Y92.58 E.76646
G1 X112.547 Y92.58 E.01923
G1 X112.547 Y77.307 E.76646
G1 X112.164 Y77.307 E.01923
G1 X112.164 Y92.58 E.76646
G1 X111.781 Y92.58 E.01923
G1 X111.781 Y77.307 E.76646
G1 X111.398 Y77.307 E.01923
G1 X111.398 Y92.58 E.76646
G1 X111.015 Y92.58 E.01923
G1 X111.015 Y77.307 E.76646
G1 X110.631 Y77.307 E.01923
G1 X110.631 Y92.58 E.76646
G1 X110.248 Y92.58 E.01923
G1 X110.248 Y77.307 E.76646
G1 X109.865 Y77.307 E.01923
G1 X109.865 Y92.58 E.76646
G1 X109.482 Y92.58 E.01923
G1 X109.482 Y77.307 E.76646
G1 X109.099 Y77.307 E.01923
G1 X109.099 Y92.58 E.76646
G1 X108.715 Y92.58 E.01923
G1 X108.715 Y77.307 E.76646
G1 X108.332 Y77.307 E.01923
G1 X108.332 Y92.58 E.76646
G1 X107.949 Y92.58 E.01923
G1 X107.949 Y77.307 E.76646
G1 X107.566 Y77.307 E.01923
G1 X107.566 Y92.58 E.76646
G1 X107.182 Y92.58 E.01923
G1 X107.182 Y77.307 E.76646
G1 X106.799 Y77.307 E.01923
G1 X106.799 Y92.58 E.76646
G1 X106.416 Y92.58 E.01923
G1 X106.416 Y77.307 E.76646
G1 X106.033 Y77.307 E.01923
G1 X106.033 Y92.58 E.76646
G1 X105.65 Y92.58 E.01923
G1 X105.65 Y77.307 E.76646
G1 X105.266 Y77.307 E.01923
G1 X105.266 Y92.58 E.76646
G1 X104.883 Y92.58 E.01923
G1 X104.883 Y77.307 E.76646
G1 X104.5 Y77.307 E.01923
G1 X104.5 Y92.58 E.76646
G1 X104.117 Y92.58 E.01923
G1 X104.117 Y77.307 E.76646
G1 X103.734 Y77.307 E.01923
G1 X103.734 Y92.58 E.76646
G1 X103.35 Y92.58 E.01923
G1 X103.35 Y77.307 E.76646
G1 X102.967 Y77.307 E.01923
G1 X102.967 Y92.58 E.76646
G1 X102.584 Y92.58 E.01923
G1 X102.584 Y77.307 E.76646
G1 X102.201 Y77.307 E.01923
G1 X102.201 Y92.58 E.76646
G1 X101.818 Y92.58 E.01923
G1 X101.818 Y77.307 E.76646
G1 X101.434 Y77.307 E.01923
G1 X101.434 Y92.58 E.76646
G1 X101.051 Y92.58 E.01923
G1 X101.051 Y77.307 E.76646
G1 X100.668 Y77.307 E.01923
G1 X100.668 Y92.58 E.76646
G1 X100.285 Y92.58 E.01923
G1 X100.285 Y77.307 E.76646
G1 X99.901 Y77.307 E.01923
G1 X99.901 Y92.58 E.76646
G1 X99.518 Y92.58 E.01923
G1 X99.518 Y77.307 E.76646
G1 X99.135 Y77.307 E.01923
G1 X99.135 Y92.58 E.76646
G1 X98.752 Y92.58 E.01923
G1 X98.752 Y77.307 E.76646
G1 X98.369 Y77.307 E.01923
G1 X98.369 Y92.58 E.76646
G1 X97.985 Y92.58 E.01923
G1 X97.985 Y77.307 E.76646
G1 X97.602 Y77.307 E.01923
G1 X97.602 Y92.58 E.76646
G1 X97.219 Y92.58 E.01923
G1 X97.219 Y77.307 E.76646
G1 X96.836 Y77.307 E.01923
G1 X96.836 Y92.58 E.76646
G1 X96.453 Y92.58 E.01923
G1 X96.453 Y77.307 E.76646
G1 X96.069 Y77.307 E.01923
G1 X96.069 Y92.58 E.76646
G1 X95.686 Y92.58 E.01923
G1 X95.686 Y77.307 E.76646
G1 X95.303 Y77.307 E.01923
G1 X95.303 Y92.58 E.76646
G1 X94.92 Y92.58 E.01923
G1 X94.92 Y77.307 E.76646
G1 X94.537 Y77.307 E.01923
G1 X94.537 Y92.58 E.76646
G1 X94.153 Y92.58 E.01923
G1 X94.153 Y77.307 E.76646
G1 X93.77 Y77.307 E.01923
G1 X93.77 Y92.58 E.76646
G1 X93.387 Y92.58 E.01923
G1 X93.387 Y77.307 E.76646
G1 X93.004 Y77.307 E.01923
G1 X93.004 Y92.58 E.76646
G1 X92.62 Y92.58 E.01923
G1 X92.62 Y77.307 E.76646
G1 X92.237 Y77.307 E.01923
G1 X92.237 Y92.58 E.76646
G1 X91.854 Y92.58 E.01923
G1 X91.854 Y77.307 E.76646
G1 X91.471 Y77.307 E.01923
G1 X91.471 Y92.58 E.76646
G1 X91.088 Y92.58 E.01923
G1 X91.088 Y77.307 E.76646
G1 X90.704 Y77.307 E.01923
G1 X90.704 Y92.58 E.76646
G1 X90.321 Y92.58 E.01923
G1 X90.321 Y77.307 E.76646
G1 X89.938 Y77.307 E.01923
G1 X89.938 Y92.58 E.76646
G1 X89.555 Y92.58 E.01923
G1 X89.555 Y77.307 E.76646
G1 X89.172 Y77.307 E.01923
G1 X89.172 Y92.58 E.76646
G1 X88.788 Y92.58 E.01923
G1 X88.788 Y77.307 E.76646
G1 X88.405 Y77.307 E.01923
G1 X88.405 Y92.691 E.77204
G1 X88.08 Y93.016 E.02311
G1 X88.08 Y93.694 E.03402
