; generated by PrusaSlicer 2.5.2+MacOS-x64 on 2023-07-07 at 18:54:48 UTC


;
;
; 

; external perimeters extrusion width = 0.45mm
; perimeters extrusion width = 0.45mm
; infill extrusion width = 0.45mm
; solid infill extrusion width = 0.45mm
; top infill extrusion width = 0.40mm
; first layer extrusion width = 0.42mm

M73 P0 R58
M73 Q0 S58
M201 X1000 Y1000 Z200 E5000 ; sets maximum accelerations, mm/sec^2
M203 X200 Y200 Z12 E120 ; sets maximum feedrates, mm / sec
M204 P1250 R1250 T1250 ; sets acceleration (P, T) and retract acceleration (R), mm/sec^2
M205 X8.00 Y8.00 Z0.40 E4.50 ; sets the jerk limits, mm/sec
M205 S0 T0 ; sets the minimum extruding and travel feed rate, mm/sec
M107
;TYPE:Custom
M862.3 P "MK3S" ; printer model check
M862.1 P0.4 ; nozzle diameter check
M115 U3.12.2 ; tell printer latest fw version
G90 ; use absolute coordinates
M83 ; extruder relative mode
M104 S215 ; set extruder temp
M140 S60 ; set bed temp
M190 S60 ; wait for bed temp
M109 S215 ; wait for extruder temp
G28 W ; home all without mesh bed level
G80 ; mesh bed leveling

G1 Z0.2 F720
G1 Y-3 F1000 ; go outside print area
G92 E0
G1 X60 E9 F1000 ; intro line
G1 X100 E12.5 F1000 ; intro line

G92 E0
M221 S95

; Don't change E values below. Excessive value can damage the printer.
M907 E430 ; set extruder motor current
G21 ; set units to millimeters
G90 ; use absolute coordinates
M83 ; use relative distances for extrusion
M900 K0.05 ; Filament gcode LA 1.5
M900 K30 ; Filament gcode LA 1.0
M107
;LAYER_CHANGE
;Z:0.2
;HEIGHT:0.2
;BEFORE_LAYER_CHANGE
G92 E0.0
;0.2


G1 E-.8 F2100
G1 Z.4 F720
;AFTER_LAYER_CHANGE
;0.2
G1 X96.583 Y89.223 F9600
G1 Z.2 F720
G1 E.8 F2100
M204 S800
;TYPE:Skirt/Brim
;WIDTH:0.42
G1 F900
G1 X99.665 Y85.887 E.14241
G1 X101.411 Y85.123 E.05976
G1 X106.048 Y85.135 E.1454
G1 X163.801 Y90.929 E1.81989
G1 X164.513 Y91.067 E.02272
G1 X165.438 Y91.422 E.03108
G1 X166.473 Y92.09 E.03864
G1 X167.163 Y92.773 E.03041
G1 X167.744 Y94.33 E.05211
G1 X167.742 Y115.675 E.66926
G1 X167.25 Y117.12 E.04785
G1 X166.425 Y117.947 E.03665
G1 X165.711 Y118.437 E.02715
G1 X164.74 Y118.864 E.03325
G1 X163.812 Y119.07 E.02981
G1 X106.048 Y124.865 E1.82021
G1 X101.411 Y124.877 E.1454
G1 X99.665 Y124.113 E.05976
G1 X87.286 Y110.713 E.57199
G1 X86.655 Y109.1 E.05431
G1 X86.655 Y100.9 E.25711
G1 X87.286 Y99.287 E.05431
G1 X96.542 Y89.267 E.4277
M204 S1000
; printing object PhoneClamp_body2.stl id:0 copy 0
;WIPE_START
G1 F7680
G1 X98.528 Y87.118 E-.76
;WIPE_END
G1 E-.04 F2100
G1 Z.6 F720
G1 X102.084 Y102.71 F9600
G1 Z.2 F720
G1 E.8 F2100
M204 S800
;TYPE:Perimeter
;WIDTH:0.419999
G1 F900
G1 X102.05 Y102.55 E.00514
G1 X101.956 Y102.404 E.00544
;WIDTH:0.46146
G1 X101.815 Y102.319 E.00572
;WIDTH:0.502921
G1 X101.674 Y102.235 E.00629
;WIDTH:0.544381
G1 X101.533 Y102.151 E.00686
G1 X91.748 Y102.151 E.40797
G1 X91.403 Y102.132 E.01442
;WIDTH:0.537826
G1 X91.403 Y101.669 E.01904
;WIDTH:0.544381
G1 X91.74 Y101.649 E.01407
G1 X101.533 Y101.649 E.40833
G1 X101.674 Y101.565 E.00686
;WIDTH:0.502921
G1 X101.815 Y101.481 E.00629
;WIDTH:0.46146
G1 X101.956 Y101.396 E.00572
;WIDTH:0.419999
G1 X102.05 Y101.25 E.00544
G1 X102.098 Y101.021 E.00733
G1 X102.098 Y88.692 E.38658
G1 X105.124 Y88.692 E.09487
M73 P0 R57
G1 X105.133 Y94.105 E.16971
G1 X105.266 Y94.382 E.00964
G1 X105.4 Y94.493 E.00546
G1 X105.69 Y94.573 E.00942
G1 X164.163 Y94.573 E1.83337
G1 X164.303 Y94.667 E.00532
G1 X164.304 Y100.71 E.18947
G1 X164.287 Y101.613 E.02831
G1 X162.498 Y101.613 E.0561
G1 X162.498 Y100.06 E.0487
G1 X162.432 Y99.794 E.0086
G1 X162.272 Y99.607 E.00769
G1 X162.091 Y99.517 E.00635
G1 X161.933 Y99.494 E.00502
G1 X156.59 Y99.494 E.16752
G1 X156.301 Y99.573 E.00938
G1 X156.113 Y99.756 E.00822
G1 X156.024 Y100.06 E.00994
G1 X156.024 Y101.313 E.03929
G1 X105.69 Y101.313 E1.5782
G1 X105.539 Y101.333 E.00476
G1 X105.274 Y101.495 E.00973
G1 X105.17 Y101.655 E.00599
G1 X105.124 Y101.879 E.00716
G1 X105.136 Y108.236 E.19932
G1 X105.274 Y108.505 E.00951
G1 X105.406 Y108.611 E.0053
G1 X105.69 Y108.687 E.0092
G1 X156.024 Y108.687 E1.5782
G1 X156.024 Y109.94 E.03929
M73 P1 R57
M73 Q1 S58
G1 X156.113 Y110.244 E.00994
G1 X156.301 Y110.427 E.00822
G1 X156.59 Y110.506 E.00938
G1 X161.84 Y110.506 E.16462
G1 X162.091 Y110.483 E.0079
G1 X162.272 Y110.393 E.00635
G1 X162.432 Y110.206 E.00769
G1 X162.498 Y109.941 E.00859
G1 X162.498 Y108.387 E.04871
G1 X164.304 Y108.399 E.05661
G1 X164.299 Y115.336 E.21751
G1 X164.163 Y115.427 E.00514
G1 X105.69 Y115.427 E1.83338
G1 X105.537 Y115.448 E.00485
M73 Q1 S57
G1 X105.266 Y115.618 E.01001
G1 X105.163 Y115.786 E.00617
G1 X105.124 Y115.993 E.0066
G1 X105.121 Y121.313 E.16682
G1 X102.102 Y121.313 E.09467
G1 X102.098 Y109.748 E.3626
G1 X102.087 Y108.864 E.02772
G1 X101.956 Y108.604 E.00913
;WIDTH:0.462578
G1 X101.833 Y108.52 E.0052
;WIDTH:0.505157
G1 X101.71 Y108.436 E.00572
;WIDTH:0.547736
G1 X101.588 Y108.351 E.00625
G1 X101.533 Y108.351 E.0023
;WIDTH:0.544381
G1 X91.748 Y108.351 E.40797
G1 X91.403 Y108.331 E.01442
;WIDTH:0.537827
G1 X91.403 Y107.868 E.01904
;WIDTH:0.544381
G1 X91.748 Y107.849 E.01442
G1 X101.533 Y107.849 E.40797
;WIDTH:0.547736
G1 X101.588 Y107.849 E.0023
G1 X101.71 Y107.764 E.00625
;WIDTH:0.505157
G1 X101.833 Y107.68 E.00572
;WIDTH:0.462578
G1 X101.956 Y107.596 E.0052
;WIDTH:0.419999
G1 X102.05 Y107.45 E.00544
G1 X102.098 Y107.221 E.00733
G1 X102.096 Y102.769 E.13961
M204 S1000
G1 X101.721 Y102.779 F9600
M204 S800
;TYPE:External perimeter
G1 F900
G1 X101.705 Y102.702 E.00244
G1 X101.533 Y102.59 E.00645
G1 X91.724 Y102.59 E.30753
G1 X90.967 Y102.54 E.0238
G1 X90.967 Y101.262 E.04006
G1 X91.725 Y101.21 E.02381
G1 X101.533 Y101.21 E.30752
G1 X101.674 Y101.146 E.00486
G1 X101.721 Y101.021 E.00419
G1 X101.721 Y88.315 E.3984
G1 X105.501 Y88.315 E.11852
G1 X105.501 Y94.007 E.17847
G1 X105.548 Y94.132 E.00419
G1 X105.69 Y94.196 E.00486
G1 X164.278 Y94.196 E1.83698
G1 X164.68 Y94.466 E.01522
G1 X164.681 Y101.795 E.22978
G1 X164.409 Y101.99 E.01051
G1 X162.121 Y101.99 E.07172
G1 X162.121 Y100.06 E.06052
G1 X162.046 Y99.909 E.00529
G1 X161.933 Y99.871 E.00374
G1 X156.59 Y99.871 E.16752
G1 X156.457 Y99.926 E.0045
G1 X156.401 Y100.06 E.00455
G1 X156.401 Y101.69 E.05112
G1 X105.69 Y101.69 E1.59002
G1 X105.551 Y101.751 E.00474
G1 X105.501 Y101.879 E.00431
G1 X105.501 Y108.1 E.19507
G1 X105.551 Y108.249 E.00494
G1 X105.69 Y108.31 E.00474
G1 X156.401 Y108.31 E1.59002
G1 X156.401 Y109.94 E.05112
G1 X156.457 Y110.074 E.00455
G1 X156.59 Y110.129 E.0045
G1 X161.84 Y110.129 E.16462
G1 X162.046 Y110.091 E.00656
G1 X162.121 Y109.94 E.00528
G1 X162.121 Y108.01 E.06053
G1 X164.409 Y108.01 E.07172
G1 X164.681 Y108.205 E.0105
G1 X164.676 Y115.537 E.22989
G1 X164.278 Y115.804 E.01504
G1 X105.69 Y115.804 E1.83698
G1 X105.549 Y115.868 E.00485
G1 X105.501 Y115.993 E.00419
G1 X105.498 Y121.69 E.17863
G1 X101.725 Y121.69 E.1183
G1 X101.721 Y108.978 E.39856
G1 X101.674 Y108.854 E.00419
G1 X101.533 Y108.79 E.00486
G1 X91.725 Y108.79 E.30752
G1 X90.967 Y108.738 E.02381
G1 X90.967 Y107.46 E.04006
G1 X91.724 Y107.41 E.0238
G1 X101.533 Y107.41 E.30753
G1 X101.674 Y107.346 E.00486
G1 X101.721 Y107.221 E.00419
G1 X101.721 Y102.839 E.13742
M204 S1000
G1 X101.783 Y102.731 F9600
;WIPE_START
G1 F7680
G1 X101.705 Y102.702 E-.03565
G1 X101.533 Y102.59 E-.05344
G1 X98.95 Y102.59 E-.67091
;WIPE_END
G1 E-.04 F2100
G1 Z.6 F720
G1 X164.125 Y95.509 F9600
G1 Z.2 F720
M73 P2 R57
M73 Q2 S57
G1 E.8 F2100
M204 S800
;TYPE:Solid infill
;WIDTH:0.421453
G1 F900
G1 X163.528 Y94.912 E.02657
G1 X162.993 Y94.912 E.01685
G1 X163.956 Y95.875 E.04287
G1 X163.957 Y96.411 E.01688
G1 X162.458 Y94.912 E.06674
G1 X161.922 Y94.912 E.01685
G1 X163.958 Y96.947 E.0906
G1 X163.958 Y97.484 E.01688
G1 X161.387 Y94.912 E.11447
G1 X160.852 Y94.912 E.01685
G1 X163.959 Y98.02 E.13833
G1 X163.96 Y98.556 E.01688
G1 X160.316 Y94.912 E.1622
G1 X159.781 Y94.912 E.01685
G1 X163.961 Y99.092 E.18606
G1 X163.962 Y99.628 E.01688
G1 X159.246 Y94.912 E.20993
G1 X158.71 Y94.912 E.01685
G1 X163.963 Y100.164 E.2338
G1 X163.963 Y100.7 E.01688
G1 X158.175 Y94.912 E.25766
G1 X157.64 Y94.912 E.01685
G1 X161.882 Y99.155 E.18886
G1 X162.189 Y99.19 E.00973
G1 X162.48 Y99.335 E.01022
G1 X162.736 Y99.634 E.01238
G1 X162.838 Y100.041 E.01322
G1 X162.838 Y100.11 E.00217
G1 X163.964 Y101.237 E.05015
G1 X163.964 Y101.274 E.00116
G1 X163.466 Y101.274 E.01569
G1 X162.838 Y100.645 E.02797
G1 X162.838 Y101.181 E.01685
G1 X163.1 Y101.443 E.01169
M204 S1000
;WIPE_START
G1 F7680
G1 X162.838 Y101.181 E-.09647
G1 X162.838 Y100.645 E-.13906
G1 X163.466 Y101.274 E-.2308
G1 X163.964 Y101.274 E-.12948
G1 X163.964 Y101.237 E-.00959
G1 X163.543 Y100.816 E-.1546
;WIPE_END
G1 E-.04 F2100
G1 Z.6 F720
G1 X161.517 Y99.324 F9600
G1 Z.2 F720
G1 E.8 F2100
M204 S800
G1 F900
G1 X157.104 Y94.912 E.19641
G1 X156.569 Y94.912 E.01685
G1 X160.812 Y99.155 E.18886
G1 X160.276 Y99.155 E.01685
G1 X156.034 Y94.912 E.18886
G1 X155.498 Y94.912 E.01685
G1 X159.741 Y99.155 E.18886
G1 X159.206 Y99.155 E.01685
G1 X154.963 Y94.912 E.18886
G1 X154.428 Y94.912 E.01685
G1 X158.67 Y99.155 E.18886
G1 X158.135 Y99.155 E.01685
G1 X153.892 Y94.912 E.18886
G1 X153.357 Y94.912 E.01685
G1 X157.6 Y99.155 E.18886
G1 X157.064 Y99.155 E.01685
G1 X152.822 Y94.912 E.18886
G1 X152.286 Y94.912 E.01685
G1 X156.535 Y99.161 E.18913
G1 X156.346 Y99.187 E.006
G1 X156.123 Y99.284 E.00766
G1 X151.751 Y94.912 E.19461
G1 X151.216 Y94.912 E.01685
G1 X155.848 Y99.545 E.20622
G1 X155.733 Y99.763 E.00776
G1 X155.704 Y99.935 E.00551
G1 X150.68 Y94.912 E.22361
G1 X150.145 Y94.912 E.01685
G1 X155.685 Y100.452 E.24659
G1 X155.685 Y100.974 E.01643
G1 X155.671 Y100.974 E.00042
G1 X149.61 Y94.912 E.26982
G1 X149.074 Y94.912 E.01685
G1 X155.136 Y100.974 E.26983
G1 X154.601 Y100.974 E.01685
G1 X148.539 Y94.912 E.26983
G1 X148.003 Y94.912 E.01685
M73 P2 R56
G1 X154.065 Y100.974 E.26983
G1 X153.53 Y100.974 E.01685
G1 X147.468 Y94.912 E.26983
G1 X146.933 Y94.912 E.01685
G1 X152.995 Y100.974 E.26983
G1 X152.459 Y100.974 E.01685
G1 X146.397 Y94.912 E.26983
G1 X145.862 Y94.912 E.01685
G1 X151.924 Y100.974 E.26983
G1 X151.389 Y100.974 E.01685
G1 X145.327 Y94.912 E.26983
G1 X144.791 Y94.912 E.01685
G1 X150.853 Y100.974 E.26983
G1 X150.318 Y100.974 E.01685
G1 X144.256 Y94.912 E.26983
G1 X143.721 Y94.912 E.01685
G1 X149.783 Y100.974 E.26983
G1 X149.247 Y100.974 E.01685
G1 X143.185 Y94.912 E.26983
G1 X142.65 Y94.912 E.01685
G1 X148.712 Y100.974 E.26983
G1 X148.177 Y100.974 E.01685
G1 X142.115 Y94.912 E.26983
G1 X141.579 Y94.912 E.01685
G1 X147.641 Y100.974 E.26983
G1 X147.106 Y100.974 E.01685
G1 X141.044 Y94.912 E.26983
G1 X140.509 Y94.912 E.01685
G1 X146.571 Y100.974 E.26983
G1 X146.035 Y100.974 E.01685
G1 X139.973 Y94.912 E.26983
G1 X139.438 Y94.912 E.01685
G1 X145.5 Y100.974 E.26983
G1 X144.965 Y100.974 E.01685
G1 X138.903 Y94.912 E.26983
G1 X138.367 Y94.912 E.01685
G1 X144.429 Y100.974 E.26983
G1 X143.894 Y100.974 E.01685
G1 X137.832 Y94.912 E.26983
G1 X137.297 Y94.912 E.01685
G1 X143.359 Y100.974 E.26984
G1 X142.823 Y100.974 E.01685
G1 X136.761 Y94.912 E.26984
G1 X136.226 Y94.912 E.01685
G1 X142.288 Y100.974 E.26984
G1 X141.753 Y100.974 E.01685
G1 X135.691 Y94.912 E.26984
G1 X135.155 Y94.912 E.01685
G1 X141.217 Y100.974 E.26984
G1 X140.682 Y100.974 E.01685
G1 X134.62 Y94.912 E.26984
G1 X134.085 Y94.912 E.01685
G1 X140.147 Y100.974 E.26984
G1 X139.611 Y100.974 E.01685
M73 Q2 S56
G1 X133.549 Y94.911 E.26984
G1 X133.014 Y94.911 E.01685
G1 X139.076 Y100.974 E.26984
G1 X138.541 Y100.974 E.01685
G1 X132.479 Y94.911 E.26984
G1 X131.943 Y94.911 E.01685
G1 X138.005 Y100.974 E.26984
G1 X137.47 Y100.974 E.01685
G1 X131.408 Y94.911 E.26984
G1 X130.873 Y94.911 E.01685
G1 X136.935 Y100.974 E.26984
G1 X136.4 Y100.974 E.01685
G1 X130.337 Y94.911 E.26984
G1 X129.802 Y94.911 E.01685
G1 X135.864 Y100.974 E.26984
G1 X135.329 Y100.974 E.01685
G1 X129.267 Y94.911 E.26984
G1 X128.731 Y94.911 E.01685
M73 P3 R56
M73 Q3 S56
G1 X134.794 Y100.974 E.26984
G1 X134.258 Y100.974 E.01685
G1 X128.196 Y94.911 E.26984
G1 X127.661 Y94.911 E.01685
G1 X133.723 Y100.974 E.26984
G1 X133.188 Y100.974 E.01685
G1 X127.125 Y94.911 E.26984
G1 X126.59 Y94.911 E.01685
G1 X132.652 Y100.974 E.26984
G1 X132.117 Y100.974 E.01685
G1 X126.055 Y94.911 E.26984
G1 X125.519 Y94.911 E.01685
G1 X131.582 Y100.974 E.26985
G1 X131.046 Y100.974 E.01685
G1 X124.984 Y94.911 E.26985
G1 X124.449 Y94.911 E.01685
G1 X130.511 Y100.974 E.26985
G1 X129.976 Y100.974 E.01685
G1 X123.913 Y94.911 E.26985
G1 X123.378 Y94.911 E.01685
G1 X129.44 Y100.974 E.26985
G1 X128.905 Y100.974 E.01685
G1 X122.843 Y94.911 E.26985
G1 X122.307 Y94.911 E.01685
G1 X128.37 Y100.974 E.26985
G1 X127.834 Y100.974 E.01685
G1 X121.772 Y94.911 E.26985
G1 X121.237 Y94.911 E.01685
G1 X127.299 Y100.974 E.26985
G1 X126.764 Y100.974 E.01685
G1 X120.701 Y94.911 E.26985
G1 X120.166 Y94.911 E.01685
G1 X126.228 Y100.974 E.26985
G1 X125.693 Y100.974 E.01685
G1 X119.631 Y94.911 E.26985
G1 X119.095 Y94.911 E.01685
G1 X125.158 Y100.974 E.26985
G1 X124.622 Y100.974 E.01685
G1 X118.56 Y94.911 E.26985
G1 X118.025 Y94.911 E.01685
G1 X124.087 Y100.974 E.26985
G1 X123.552 Y100.974 E.01685
G1 X117.489 Y94.911 E.26985
G1 X116.954 Y94.911 E.01685
G1 X123.016 Y100.974 E.26985
G1 X122.481 Y100.974 E.01685
G1 X116.419 Y94.911 E.26985
G1 X115.883 Y94.911 E.01685
G1 X121.946 Y100.974 E.26985
G1 X121.41 Y100.974 E.01685
G1 X115.348 Y94.911 E.26985
G1 X114.813 Y94.911 E.01685
G1 X120.875 Y100.974 E.26985
G1 X120.34 Y100.974 E.01685
G1 X114.277 Y94.911 E.26985
G1 X113.742 Y94.911 E.01685
G1 X119.804 Y100.974 E.26986
G1 X119.269 Y100.974 E.01685
G1 X113.207 Y94.911 E.26986
G1 X112.671 Y94.911 E.01685
G1 X118.734 Y100.974 E.26986
G1 X118.198 Y100.974 E.01685
G1 X112.136 Y94.911 E.26986
G1 X111.601 Y94.911 E.01685
G1 X117.663 Y100.974 E.26986
G1 X117.128 Y100.974 E.01685
G1 X111.065 Y94.911 E.26986
G1 X110.53 Y94.911 E.01685
G1 X116.592 Y100.974 E.26986
G1 X116.057 Y100.974 E.01685
G1 X109.995 Y94.911 E.26986
G1 X109.459 Y94.911 E.01685
G1 X115.522 Y100.974 E.26986
G1 X114.986 Y100.974 E.01685
G1 X108.924 Y94.911 E.26986
G1 X108.389 Y94.911 E.01685
G1 X114.451 Y100.974 E.26986
G1 X113.916 Y100.974 E.01685
G1 X107.853 Y94.911 E.26986
G1 X107.318 Y94.911 E.01685
G1 X113.38 Y100.974 E.26986
G1 X112.845 Y100.974 E.01685
G1 X106.783 Y94.911 E.26986
G1 X106.247 Y94.911 E.01685
G1 X112.48 Y101.143 E.27741
M204 S1000
;WIPE_START
G1 F7680
G1 X110.411 Y99.074 E-.76
;WIPE_END
G1 E-.04 F2100
G1 Z.6 F720
G1 X104.955 Y89.337 F9600
G1 Z.2 F720
G1 E.8 F2100
M204 S800
G1 F900
G1 X104.65 Y89.031 E.01358
G1 X104.115 Y89.031 E.01685
G1 X104.786 Y89.703 E.02989
G1 X104.788 Y90.239 E.01689
G1 X103.58 Y89.031 E.05377
G1 X103.044 Y89.031 E.01685
G1 X104.789 Y90.776 E.07765
G1 X104.79 Y91.312 E.01689
G1 X102.509 Y89.031 E.10153
G1 X102.438 Y89.031 E.00225
G1 X102.438 Y89.495 E.0146
G1 X104.791 Y91.849 E.10476
G1 X104.792 Y92.385 E.01689
G1 X102.438 Y90.031 E.10481
G1 X102.438 Y90.566 E.01685
G1 X104.793 Y92.922 E.10486
G1 X104.795 Y93.458 E.01689
G1 X102.438 Y91.101 E.10491
G1 X102.438 Y91.637 E.01685
G1 X104.796 Y93.995 E.10497
G1 X104.796 Y94.158 E.00515
G1 X104.848 Y94.344 E.00606
G1 X105.009 Y94.607 E.00971
G1 X105.224 Y94.785 E.00878
G1 X105.443 Y94.879 E.00749
G1 X105.712 Y94.911 E.00854
G1 X111.774 Y100.974 E.26986
G1 X111.239 Y100.974 E.01685
G1 X102.438 Y92.172 E.39178
G1 X102.438 Y92.707 E.01685
G1 X110.704 Y100.974 E.36795
G1 X110.169 Y100.974 E.01685
G1 X102.438 Y93.243 E.34412
G1 X102.438 Y93.778 E.01685
G1 X109.633 Y100.974 E.32029
G1 X109.098 Y100.974 E.01685
G1 X102.438 Y94.313 E.29646
G1 X102.438 Y94.849 E.01685
G1 X108.563 Y100.974 E.27264
G1 X108.027 Y100.974 E.01685
G1 X102.438 Y95.384 E.24881
G1 X102.438 Y95.919 E.01685
M73 P4 R56
G1 X107.492 Y100.974 E.22498
G1 X106.957 Y100.974 E.01685
M73 Q4 S56
G1 X102.438 Y96.455 E.20115
G1 X102.438 Y96.99 E.01685
G1 X106.421 Y100.974 E.17732
G1 X105.886 Y100.974 E.01685
G1 X102.438 Y97.525 E.15349
G1 X102.438 Y98.061 E.01685
G1 X105.402 Y101.025 E.13194
G1 X105.234 Y101.095 E.00572
G1 X105.069 Y101.227 E.00666
G1 X102.438 Y98.596 E.11712
G1 X102.438 Y99.131 E.01685
G1 X104.851 Y101.544 E.10741
G1 X104.79 Y101.771 E.0074
