; generated by PrusaSlicer 2.4.1+arm64 on 2023-05-15 at 18:38:38 UTC


;
;
; 

; external perimeters extrusion width = 0.45mm
; perimeters extrusion width = 0.45mm
; infill extrusion width = 0.45mm
; solid infill extrusion width = 0.45mm
; top infill extrusion width = 0.40mm
; support material extrusion width = 0.35mm
; first layer extrusion width = 0.42mm

; external perimeters extrusion width = 0.45mm
; perimeters extrusion width = 0.45mm
; infill extrusion width = 0.45mm
; solid infill extrusion width = 0.45mm
; top infill extrusion width = 0.40mm
; support material extrusion width = 0.35mm
; first layer extrusion width = 0.42mm

M73 P0 R87
M73 Q0 S89
M201 X1000 Y1000 Z200 E5000 ; sets maximum accelerations, mm/sec^2
M203 X200 Y200 Z12 E120 ; sets maximum feedrates, mm / sec
M204 P1250 R1250 T1250 ; sets acceleration (P, T) and retract acceleration (R), mm/sec^2
M205 X8.00 Y8.00 Z0.40 E4.50 ; sets the jerk limits, mm/sec
M205 S0 T0 ; sets the minimum extruding and travel feed rate, mm/sec
M107
;TYPE:Custom
M862.3 P "MK3S" ; printer model check
M862.1 P0.4 ; nozzle diameter check
M115 U3.11.0 ; tell printer latest fw version
G90 ; use absolute coordinates
M83 ; extruder relative mode
M104 S215 ; set extruder temp
M140 S60 ; set bed temp
M190 S60 ; wait for bed temp
M109 S215 ; wait for extruder temp
G28 W ; home all without mesh bed level
G80 ; mesh bed leveling

G1 Z0.2 F720
G1 Y-3 F1000 ; go outside print area
G92 E0
G1 X60 E9 F1000 ; intro line
G1 X100 E12.5 F1000 ; intro line

G92 E0
M221 S95

; Don't change E values below. Excessive value can damage the printer.

G21 ; set units to millimeters
G90 ; use absolute coordinates
M83 ; use relative distances for extrusion
M900 K0.05 ; Filament gcode LA 1.5
M900 K30 ; Filament gcode LA 1.0
M107
;LAYER_CHANGE
;Z:0.35
;HEIGHT:0.35
;BEFORE_LAYER_CHANGE
G92 E0.0
;0.35


G1 E-.8 F2100
G1 Z.4 F1200
;AFTER_LAYER_CHANGE
;0.35
G1 X110.95 Y22.242 F9000
G1 Z.35 F1200
G1 E.8 F2100
;TYPE:Skirt/Brim
;WIDTH:0.42
G1 F1800
G1 X114.513 Y4.468 E.90973
G1 X115.175 Y3.174 E.07293
G1 X116.413 Y2.413 E.07293
G1 X117.15 Y2.31 E.03737
G1 X138.15 Y2.31 E1.0539
G1 X139.549 Y2.703 E.07293
G1 X140.54 Y3.766 E.07293
G1 X140.84 Y5 E.06374
G1 X140.84 Y205 E10.03718
G1 X140.447 Y206.399 E.07293
M73 Q0 S88
G1 X139.384 Y207.39 E.07293
G1 X138.15 Y207.69 E.06374
G1 X117.15 Y207.69 E1.0539
G1 X115.751 Y207.297 E.07293
G1 X114.76 Y206.234 E.07293
G1 X114.513 Y205.532 E.03737
G1 X109.258 Y179.461 E1.33472
G1 X109.16 Y178.593 E.04383
G1 X109.183 Y31.056 E7.40424
G1 X110.938 Y22.301 E.44814
G1 X111.276 Y22.369 F9000
G1 F1800
G1 X114.851 Y4.537 E.91272
G1 X115.491 Y3.342 E.068
G1 X117.15 Y2.655 E.0901
G1 X138.15 Y2.655 E1.0539
G1 X139.447 Y3.047 E.068
G1 X140.311 Y4.09 E.068
G1 X140.495 Y5 E.04658
G1 X140.495 Y205 E10.03718
G1 X140.103 Y206.297 E.068
G1 X139.06 Y207.161 E.068
G1 X138.15 Y207.345 E.04658
G1 X117.15 Y207.345 E1.0539
G1 X115.853 Y206.953 E.068
G1 X114.851 Y205.463 E.0901
G1 X109.596 Y179.392 E1.33472
G1 X109.505 Y178.593 E.0404
G1 X109.525 Y31.101 E7.40198
G1 X111.264 Y22.427 E.44397
;WIPE_START
G1 F7200
G1 X111.803 Y19.738 E-.76
;WIPE_END
G1 E-.04 F2100
G1 Z.75 F1200
G1 X131.743 Y78.461 F9000
G1 Z.35 F1200
G1 E.8 F2100
;TYPE:Perimeter
G1 F1800
G1 X131.824 Y79.078 E.03127
G1 X132.065 Y79.659 E.03154
G1 X132.411 Y80.111 E.02856
G1 X137.25 Y84.949 E.34343
G1 X137.25 Y125.051 E2.01252
G1 X132.411 Y129.89 E.34343
G1 X132.065 Y130.341 E.02856
G1 X131.824 Y130.922 E.03154
G1 X131.743 Y131.539 E.03127
G1 X131.55 Y131.527 E.00973
G1 X131.55 Y78.473 E2.66252
G1 X131.683 Y78.465 E.00672
;WIPE_START
G1 F7200
G1 X131.824 Y79.078 E-.1745
G1 X132.065 Y79.659 E-.17415
G1 X132.411 Y80.111 E-.15767
G1 X133.059 Y80.758 E-.25368
;WIPE_END
G1 E-.04 F2100
G1 Z.75 F1200
G1 X131.743 Y60.978 F9000
G1 Z.35 F1200
G1 E.8 F2100
G1 F1800
G1 X131.824 Y61.596 E.03127
G1 X132.065 Y62.177 E.03154
G1 X132.448 Y62.675 E.03154
G1 X132.946 Y63.058 E.03154
G1 X133.527 Y63.298 E.03154
G1 X134.15 Y63.38 E.03154
G1 X134.773 Y63.298 E.03154
G1 X135.354 Y63.058 E.03154
G1 X135.805 Y62.711 E.02856
G1 X137.25 Y61.266 E.10256
G1 X137.25 Y78.162 E.8479
G1 X135.805 Y76.717 E.10256
G1 X135.354 Y76.37 E.02856
G1 X134.773 Y76.13 E.03154
G1 X134.15 Y76.048 E.03154
G1 X133.527 Y76.13 E.03154
G1 X132.946 Y76.37 E.03154
G1 X132.448 Y76.753 E.03154
G1 X132.065 Y77.252 E.03154
G1 X131.824 Y77.832 E.03154
G1 X131.743 Y78.45 E.03127
G1 X131.55 Y78.437 E.00973
G1 X131.55 Y60.991 E.87555
G1 X131.683 Y60.982 E.00672
;WIPE_START
G1 F7200
G1 X131.824 Y61.596 E-.1745
G1 X132.065 Y62.177 E-.17415
G1 X132.448 Y62.675 E-.17415
G1 X132.946 Y63.058 E-.17414
G1 X133.156 Y63.145 E-.06306
;WIPE_END
G1 E-.04 F2100
G1 Z.75 F1200
G1 X131.743 Y31.413 F9000
G1 Z.35 F1200
G1 E.8 F2100
G1 F1800
G1 X131.824 Y32.031 E.03127
G1 X132.065 Y32.611 E.03154
G1 X132.411 Y33.063 E.02856
G1 X137.25 Y37.901 E.34343
G1 X137.25 Y54.479 E.83195
G1 X132.411 Y59.318 E.34343
G1 X132.065 Y59.769 E.02856
G1 X131.824 Y60.35 E.03154
G1 X131.743 Y60.967 E.03127
G1 X131.55 Y60.955 E.00973
G1 X131.55 Y31.426 E1.48195
G1 X131.683 Y31.417 E.00672
;WIPE_START
G1 F7200
G1 X131.824 Y32.031 E-.17451
G1 X132.065 Y32.611 E-.17415
G1 X132.411 Y33.063 E-.15766
G1 X133.059 Y33.71 E-.25369
;WIPE_END
G1 E-.04 F2100
G1 Z.75 F1200
G1 X131.55 Y5.9 F9000
G1 Z.35 F1200
G1 E.8 F2100
G1 F1800
G1 X137.25 Y5.9 E.28608
G1 X137.25 Y31.114 E1.26539
G1 X135.805 Y29.669 E.10256
G1 X135.354 Y29.322 E.02856
G1 X134.773 Y29.082 E.03154
G1 X134.15 Y29 E.03154
G1 X133.527 Y29.082 E.03154
G1 X132.946 Y29.322 E.03154
G1 X132.448 Y29.705 E.03154
G1 X132.065 Y30.204 E.03154
G1 X131.824 Y30.784 E.03154
G1 X131.743 Y31.402 E.03127
G1 X131.55 Y31.389 E.00973
G1 X131.55 Y5.96 E1.2762
;WIPE_START
G1 F7200
G1 X134.292 Y5.931 E-.76
;WIPE_END
G1 E-.04 F2100
G1 Z.75 F1200
G1 X131.743 Y131.55 F9000
G1 Z.35 F1200
G1 E.8 F2100
G1 F1800
G1 X131.824 Y132.168 E.03127
G1 X132.065 Y132.748 E.03154
G1 X132.448 Y133.247 E.03154
G1 X132.946 Y133.63 E.03154
G1 X133.527 Y133.87 E.03154
G1 X134.15 Y133.952 E.03154
G1 X134.773 Y133.87 E.03154
G1 X135.354 Y133.63 E.03154
G1 X135.805 Y133.283 E.02856
G1 X137.25 Y131.838 E.10256
G1 X137.25 Y148.734 E.8479
G1 X135.805 Y147.288 E.10256
M73 P0 R86
G1 X135.354 Y146.942 E.02856
G1 X134.773 Y146.702 E.03154
G1 X134.15 Y146.62 E.03154
G1 X133.527 Y146.702 E.03154
G1 X132.946 Y146.942 E.03154
G1 X132.448 Y147.325 E.03154
G1 X132.065 Y147.823 E.03154
G1 X131.824 Y148.404 E.03154
G1 X131.743 Y149.022 E.03127
G1 X131.55 Y149.009 E.00973
G1 X131.55 Y131.563 E.87555
G1 X131.683 Y131.554 E.00672
;WIPE_START
M73 P1 R86
M73 Q1 S88
G1 F7200
G1 X131.824 Y132.168 E-.1745
G1 X132.065 Y132.748 E-.17415
G1 X132.448 Y133.247 E-.17415
G1 X132.946 Y133.63 E-.17414
G1 X133.156 Y133.717 E-.06306
;WIPE_END
G1 E-.04 F2100
G1 Z.75 F1200
G1 X131.743 Y149.033 F9000
G1 Z.35 F1200
G1 E.8 F2100
G1 F1800
G1 X131.824 Y149.65 E.03127
G1 X132.065 Y150.231 E.03154
G1 X132.411 Y150.682 E.02856
G1 X137.25 Y155.521 E.34343
G1 X137.25 Y172.099 E.83195
G1 X132.411 Y176.937 E.34343
G1 X132.065 Y177.389 E.02856
G1 X131.824 Y177.969 E.03154
G1 X131.743 Y178.587 E.03127
G1 X131.55 Y178.574 E.00973
G1 X131.55 Y149.045 E1.48195
G1 X131.683 Y149.036 E.00672
;WIPE_START
G1 F7200
G1 X131.824 Y149.65 E-.1745
G1 X132.065 Y150.231 E-.17415
G1 X132.411 Y150.682 E-.15766
G1 X133.059 Y151.33 E-.25369
;WIPE_END
G1 E-.04 F2100
G1 Z.75 F1200
G1 X131.743 Y178.598 F9000
G1 Z.35 F1200
G1 E.8 F2100
G1 F1800
G1 X131.824 Y179.216 E.03127
G1 X132.065 Y179.796 E.03154
G1 X132.448 Y180.295 E.03154
G1 X132.946 Y180.678 E.03154
G1 X133.527 Y180.918 E.03154
G1 X134.15 Y181 E.03154
G1 X134.773 Y180.918 E.03154
G1 X135.354 Y180.678 E.03154
G1 X135.805 Y180.331 E.02856
G1 X137.25 Y178.886 E.10256
G1 X137.25 Y204.1 E1.26539
G1 X131.55 Y204.1 E.28608
G1 X131.55 Y178.611 E1.27922
G1 X131.683 Y178.602 E.00672
;WIPE_START
G1 F7200
G1 X131.824 Y179.216 E-.1745
G1 X132.065 Y179.796 E-.17415
G1 X132.448 Y180.295 E-.17415
G1 X132.946 Y180.678 E-.17414
G1 X133.156 Y180.765 E-.06306
;WIPE_END
G1 E-.04 F2100
G1 Z.75 F1200
G1 X131.205 Y5.555 F9000
G1 Z.35 F1200
G1 E.8 F2100
G1 F1800
G1 X137.595 Y5.555 E.3207
G1 X137.595 Y31.946 E1.32449
G1 X135.577 Y29.929 E.14321
G1 X135.18 Y29.624 E.02514
G1 X134.683 Y29.418 E.02698
G1 X134.15 Y29.348 E.02698
G1 X133.617 Y29.418 E.02698
G1 X133.12 Y29.624 E.02698
G1 X132.694 Y29.951 E.02698
G1 X132.366 Y30.378 E.02698
G1 X132.161 Y30.874 E.02698
G1 X132.09 Y31.407 E.02698
G1 X132.161 Y31.941 E.02698
G1 X132.366 Y32.437 E.02698
G1 X132.671 Y32.835 E.02514
G1 X137.595 Y37.759 E.34946
G1 X137.595 Y54.622 E.84629
G1 X132.671 Y59.546 E.34946
G1 X132.366 Y59.943 E.02514
G1 X132.161 Y60.44 E.02698
G1 X132.09 Y60.973 E.02698
G1 X132.161 Y61.506 E.02698
G1 X132.366 Y62.003 E.02698
G1 X132.694 Y62.429 E.02698
G1 X133.12 Y62.757 E.02698
G1 X133.617 Y62.962 E.02698
G1 X134.15 Y63.033 E.02698
G1 X134.683 Y62.962 E.02698
G1 X135.18 Y62.757 E.02698
G1 X135.577 Y62.452 E.02514
G1 X137.595 Y60.434 E.14321
G1 X137.595 Y78.994 E.93148
G1 X135.577 Y76.977 E.14321
G1 X135.18 Y76.672 E.02514
G1 X134.683 Y76.466 E.02698
G1 X134.15 Y76.396 E.02698
G1 X133.617 Y76.466 E.02698
G1 X133.12 Y76.672 E.02698
G1 X132.694 Y76.999 E.02698
G1 X132.366 Y77.425 E.02698
G1 X132.161 Y77.922 E.02698
G1 X132.09 Y78.455 E.02698
G1 X132.161 Y78.988 E.02698
G1 X132.366 Y79.485 E.02698
G1 X132.671 Y79.883 E.02514
G1 X137.595 Y84.806 E.34946
G1 X137.595 Y125.194 E2.02686
G1 X132.671 Y130.117 E.34946
G1 X132.366 Y130.515 E.02514
G1 X132.161 Y131.012 E.02698
G1 X132.09 Y131.545 E.02698
G1 X132.161 Y132.078 E.02698
G1 X132.366 Y132.575 E.02698
G1 X132.694 Y133.001 E.02698
G1 X133.12 Y133.328 E.02698
G1 X133.617 Y133.534 E.02698
G1 X134.15 Y133.604 E.02698
G1 X134.683 Y133.534 E.02698
G1 X135.18 Y133.328 E.02698
G1 X135.577 Y133.023 E.02514
G1 X137.595 Y131.006 E.14321
G1 X137.595 Y149.566 E.93148
G1 X135.577 Y147.548 E.14321
G1 X135.18 Y147.243 E.02514
G1 X134.683 Y147.038 E.02698
G1 X134.15 Y146.967 E.02698
G1 X133.617 Y147.038 E.02698
G1 X133.12 Y147.243 E.02698
G1 X132.694 Y147.571 E.02698
G1 X132.366 Y147.997 E.02698
G1 X132.161 Y148.494 E.02698
G1 X132.09 Y149.027 E.02698
G1 X132.161 Y149.56 E.02698
G1 X132.366 Y150.057 E.02698
G1 X132.671 Y150.454 E.02514
G1 X137.595 Y155.378 E.34946
G1 X137.595 Y172.241 E.84629
G1 X132.671 Y177.165 E.34946
G1 X132.366 Y177.563 E.02514
G1 X132.161 Y178.059 E.02698
G1 X132.09 Y178.593 E.02698
G1 X132.161 Y179.126 E.02698
G1 X132.366 Y179.622 E.02698
G1 X132.694 Y180.049 E.02698
G1 X133.12 Y180.376 E.02698
G1 X133.617 Y180.582 E.02698
G1 X134.15 Y180.652 E.02698
G1 X134.683 Y180.582 E.02698
G1 X135.18 Y180.376 E.02698
G1 X135.577 Y180.071 E.02514
G1 X137.595 Y178.054 E.14321
G1 X137.595 Y204.445 E1.32449
G1 X131.205 Y204.445 E.3207
M73 Q1 S87
G1 X131.205 Y5.615 E9.97848
G1 X130.86 Y5.21 F9000
;TYPE:External perimeter
G1 F1800
G1 X137.94 Y5.21 E.35532
G1 X137.94 Y32.779 E1.38358
G1 X135.349 Y30.189 E.18386
G1 X135.006 Y29.925 E.02173
G1 X134.593 Y29.754 E.02243
G1 X134.15 Y29.696 E.02243
G1 X133.707 Y29.754 E.02243
G1 X133.294 Y29.925 E.02243
G1 X132.94 Y30.197 E.02243
G1 X132.668 Y30.552 E.02243
G1 X132.497 Y30.964 E.02243
G1 X132.438 Y31.407 E.02243
G1 X132.497 Y31.85 E.02243
G1 X132.668 Y32.263 E.02243
G1 X132.931 Y32.607 E.02173
G1 X137.94 Y37.616 E.3555
G1 X137.94 Y54.765 E.86063
G1 X132.931 Y59.773 E.3555
G1 X132.668 Y60.117 E.02173
G1 X132.497 Y60.53 E.02243
G1 X132.438 Y60.973 E.02243
G1 X132.497 Y61.416 E.02243
G1 X132.668 Y61.829 E.02243
G1 X132.94 Y62.183 E.02243
G1 X133.294 Y62.455 E.02243
G1 X133.707 Y62.626 E.02243
G1 X134.15 Y62.685 E.02243
G1 X134.593 Y62.626 E.02243
G1 X135.006 Y62.455 E.02243
G1 X135.349 Y62.192 E.02173
G1 X137.94 Y59.601 E.18386
G1 X137.94 Y79.827 E1.01505
G1 X135.349 Y77.236 E.18386
G1 X135.006 Y76.973 E.02173
G1 X134.593 Y76.802 E.02243
G1 X134.15 Y76.743 E.02243
G1 X133.707 Y76.802 E.02243
G1 X133.294 Y76.973 E.02243
G1 X132.94 Y77.245 E.02243
G1 X132.668 Y77.599 E.02243
G1 X132.497 Y78.012 E.02243
G1 X132.438 Y78.455 E.02243
G1 X132.497 Y78.898 E.02243
G1 X132.668 Y79.311 E.02243
G1 X132.931 Y79.655 E.02173
G1 X137.94 Y84.664 E.3555
G1 X137.94 Y125.336 E2.0412
G1 X132.931 Y130.345 E.3555
G1 X132.668 Y130.689 E.02173
G1 X132.497 Y131.102 E.02243
G1 X132.438 Y131.545 E.02243
G1 X132.497 Y131.988 E.02243
G1 X132.668 Y132.401 E.02243
G1 X132.94 Y132.755 E.02243
G1 X133.294 Y133.027 E.02243
G1 X133.707 Y133.198 E.02243
G1 X134.15 Y133.257 E.02243
G1 X134.593 Y133.198 E.02243
G1 X135.006 Y133.027 E.02243
G1 X135.349 Y132.764 E.02173
G1 X137.94 Y130.173 E.18386
G1 X137.94 Y150.399 E1.01505
G1 X135.349 Y147.808 E.18386
G1 X135.006 Y147.545 E.02173
G1 X134.593 Y147.374 E.02243
G1 X134.15 Y147.315 E.02243
G1 X133.707 Y147.374 E.02243
G1 X133.294 Y147.545 E.02243
G1 X132.94 Y147.817 E.02243
G1 X132.668 Y148.171 E.02243
G1 X132.497 Y148.584 E.02243
G1 X132.438 Y149.027 E.02243
G1 X132.497 Y149.47 E.02243
G1 X132.668 Y149.883 E.02243
G1 X132.931 Y150.227 E.02173
G1 X137.94 Y155.235 E.3555
G1 X137.94 Y172.384 E.86063
G1 X132.931 Y177.393 E.3555
G1 X132.668 Y177.737 E.02173
G1 X132.497 Y178.15 E.02243
G1 X132.438 Y178.593 E.02243
G1 X132.497 Y179.036 E.02243
G1 X132.668 Y179.448 E.02243
G1 X132.94 Y179.803 E.02243
G1 X133.294 Y180.075 E.02243
G1 X133.707 Y180.246 E.02243
G1 X134.15 Y180.304 E.02243
G1 X134.593 Y180.246 E.02243
G1 X135.006 Y180.075 E.02243
G1 X135.349 Y179.811 E.02173
G1 X137.94 Y177.221 E.18386
G1 X137.94 Y204.79 E1.38358
G1 X130.86 Y204.79 E.35532
G1 X130.86 Y5.27 E10.01309
G1 X131.209 Y5.406 F9000
;WIPE_START
G1 F7200
G1 X133.603 Y5.247 E-.76
;WIPE_END
G1 E-.04 F2100
G1 Z.75 F1200
G1 X137.147 Y6.711 F9000
G1 Z.35 F1200
G1 E.8 F2100
;TYPE:Solid infill
;WIDTH:0.424993
G1 F1800
G1 X136.594 Y6.158 E.03979
G1 X136.099 Y6.158 E.02519
G1 X136.992 Y7.051 E.06424
G1 X136.992 Y7.545 E.02519
G1 X135.605 Y6.158 E.09987
G1 X135.11 Y6.158 E.02519
G1 X136.992 Y8.04 E.13549
G1 X136.992 Y8.535 E.02519
G1 X134.615 Y6.158 E.17112
G1 X134.12 Y6.158 E.02519
G1 X136.992 Y9.03 E.20675
G1 X136.992 Y9.525 E.02519
G1 X133.625 Y6.158 E.24237
G1 X133.131 Y6.158 E.02519
G1 X136.992 Y10.019 E.278
G1 X136.992 Y10.514 E.02519
G1 X132.636 Y6.158 E.31363
G1 X132.141 Y6.158 E.02519
G1 X136.992 Y11.009 E.34925
G1 X136.992 Y11.504 E.02519
G1 X131.808 Y6.321 E.37319
G1 X131.808 Y6.816 E.02519
G1 X136.992 Y11.999 E.37319
G1 X136.992 Y12.494 E.02519
G1 X131.808 Y7.31 E.37319
G1 X131.808 Y7.805 E.02519
G1 X136.992 Y12.988 E.37319
G1 X136.992 Y13.483 E.02519
G1 X131.808 Y8.3 E.37319
G1 X131.808 Y8.795 E.02519
G1 X136.992 Y13.978 E.37319
G1 X136.992 Y14.473 E.02519
G1 X131.808 Y9.29 E.37319
G1 X131.808 Y9.784 E.02519
G1 X136.992 Y14.968 E.37319
G1 X136.992 Y15.462 E.02519
G1 X131.808 Y10.279 E.37319
G1 X131.808 Y10.774 E.02519
G1 X136.992 Y15.957 E.37319
G1 X136.992 Y16.452 E.02519
G1 X131.808 Y11.269 E.37319
G1 X131.808 Y11.764 E.02519
G1 X136.992 Y16.947 E.37319
G1 X136.992 Y17.442 E.02519
G1 X131.808 Y12.258 E.37319
G1 X131.808 Y12.753 E.02519
G1 X136.992 Y17.936 E.37319
G1 X136.992 Y18.431 E.02519
G1 X131.808 Y13.248 E.37319
G1 X131.808 Y13.743 E.02519
G1 X136.992 Y18.926 E.37319
G1 X136.992 Y19.421 E.02519
G1 X131.808 Y14.238 E.37319
G1 X131.808 Y14.732 E.02519
G1 X136.992 Y19.916 E.37319
G1 X136.992 Y20.41 E.02519
G1 X131.808 Y15.227 E.37319
G1 X131.808 Y15.722 E.02519
G1 X136.992 Y20.905 E.37319
G1 X136.992 Y21.4 E.02519
G1 X131.808 Y16.217 E.37319
G1 X131.808 Y16.712 E.02519
G1 X136.992 Y21.895 E.37319
G1 X136.992 Y22.39 E.02519
G1 X131.808 Y17.207 E.37319
G1 X131.808 Y17.701 E.02519
G1 X136.992 Y22.884 E.37319
G1 X136.992 Y23.379 E.02519
G1 X131.808 Y18.196 E.37319
G1 X131.808 Y18.691 E.02519
G1 X136.992 Y23.874 E.37319
G1 X136.992 Y24.369 E.02519
G1 X131.808 Y19.186 E.37319
G1 X131.808 Y19.681 E.02519
G1 X136.992 Y24.864 E.37319
G1 X136.992 Y25.359 E.02519
G1 X131.808 Y20.175 E.37319
G1 X131.808 Y20.67 E.02519
G1 X136.992 Y25.853 E.37319
G1 X136.992 Y26.348 E.02519
G1 X131.808 Y21.165 E.37319
G1 X131.808 Y21.66 E.02519
G1 X136.992 Y26.843 E.37319
G1 X136.992 Y27.338 E.02519
G1 X131.808 Y22.155 E.37319
G1 X131.808 Y22.649 E.02519
